!!!system-decoration: \{(s1,s2)\}s3,s4\
!!!OTL: A_BEAUTIFUL_FRIENDSHIP
**kern	**kern	**kern	**kern	**mxhm
*part3	*part2	*part1	*part1	*part1
*staff4	*staff3	*staff2	*staff1	*
*I'Contrabass'	*I'Drumset'	*'IPiano'	*	*
*I'Cb.	*I'D. Set	*I'Pno.	*	*
*clefF4	*clefX	*clefF4	*clefG2	*
*k[b-e-a-]	*k[]	*k[b-e-a-]	*k[b-e-a-]	*
*C: 	*C:	*C:	*C:	*C:
*M4/4	*M4/4	*M4/4	*M4/4	*
*MM140	*MM140	*MM140	*MM140	*
*SSSwing	*SSSwing	*SSSwing	*SSSwing	*
=1	=1	=1	=1	=1
*	*^	*^	*	*
*	*head:regular	*head:x	*	*	*	*
!	!	!	!	!	!LO:TX:a:t=[quarter]=140.0	!
!	!	!	!	!	!LO:TX:a:t=Swing	!
6CC	16Rf\	16Ree/	4r	1ryy	4r	C e
.	16re	16ree	.	.	.	.
.	.	.	.	.	.	.
.	8re	8ree	.	.	.	.
12r	.	.	.	.	.	.
.	.	.	.	.	.	.
8.BBB	4re	16Ree/	4E A	.	4d g b gg	.
.	.	16ree	.	.	.	.
.	.	.	.	.	.	.
.	.	8ree	.	.	.	.
.	.	.	.	.	.	.
16r	.	.	.	.	.	.
4CC	4re	16Ree/	4r	.	4r	.
.	.	16ree	.	.	.	.
.	.	.	.	.	.	.
.	.	8ree	.	.	.	.
.	.	.	.	.	.	.
.	.	.	.	.	.	.
4DD	4re	16Ree/	4r	.	4r	.
.	.	16ree	.	.	.	.
.	.	.	.	.	.	.
.	.	8ree	.	.	.	.
.	.	.	.	.	.	.
.	.	.	.	.	.	.
=2	=2	=2	=2	=2	=2	=2
*	*head:regular	*head:x	*	*	*	*
8FF#	16Rf\	16Ree/	4r	1ryy	4r	G t
.	16re	16ree	.	.	.	.
.	.	.	.	.	.	.
8r	8re	8ree	.	.	.	.
.	.	.	.	.	.	.
.	.	.	.	.	.	.
4CC	4re	16Ree/	4r	.	4r	.
.	.	16ree	.	.	.	.
.	.	.	.	.	.	.
.	.	8ree	.	.	.	.
.	.	.	.	.	.	.
.	.	.	.	.	.	.
4AAA#	4re	16Ree/	6E A#	.	6c# f# cc ff#	.
.	.	16ree	.	.	.	.
.	.	.	.	.	.	.
.	.	8ree	.	.	.	.
.	.	.	12r	.	12r	.
.	.	.	.	.	.	.
6CC	4re	16Ree/	4r	.	4r	.
.	.	16ree	.	.	.	.
.	.	.	.	.	.	.
.	.	8ree	.	.	.	.
12r	.	.	.	.	.	.
.	.	.	.	.	.	.
=3	=3	=3	=3	=3	=3	=3
*	*head:regular	*head:x	*	*	*	*
4CC	16Rcc\	4ree	4A	1ryy	4e g dd	F e
.	16re	.	.	.	.	.
.	.	.	.	.	.	.
.	8re	.	.	.	.	.
.	.	.	.	.	.	.
.	.	.	.	.	.	.
4AAA#	4re	16Ree/	4r	.	4r	.
.	.	16ree	.	.	.	.
.	.	.	.	.	.	.
.	.	8ree	.	.	.	.
.	.	.	.	.	.	.
.	.	.	.	.	.	.
4AAA	4re	16Ree/	4r	.	4r	.
.	.	16ree	.	.	.	.
.	.	.	.	.	.	.
.	.	8ree	.	.	.	.
.	.	.	.	.	.	.
.	.	.	.	.	.	.
4AAA	4re	16Ree/	4r	.	4r	.
.	.	16ree	.	.	.	.
.	.	.	.	.	.	.
.	.	8ree	.	.	.	.
.	.	.	.	.	.	.
.	.	.	.	.	.	.
=4	=4	=4	=4	=4	=4	=4
*	*head:regular	*head:x	*	*	*	*
4AAA#	4re	16Ree/	4r	1ryy	4r	E W
.	.	16ree	.	.	.	.
.	.	.	.	.	.	.
.	.	8ree	.	.	.	.
.	.	.	.	.	.	.
.	.	.	.	.	.	.
4DD#	4re	16Ree/	6G	.	6d e a#	.
.	.	16ree	.	.	.	.
.	.	.	.	.	.	.
.	.	8ree	.	.	.	.
.	.	.	12r	.	12r	.
.	.	.	.	.	.	.
4EE	4re	16Ree/	6G	.	6c# e a#	A S
.	.	16ree	.	.	.	.
.	.	.	.	.	.	.
.	.	8ree	.	.	.	.
.	.	.	12r	.	12r	.
.	.	.	.	.	.	.
4BB	4re	16Ree/	4r	.	4r	.
.	.	16ree	.	.	.	.
.	.	.	.	.	.	.
.	.	8ree	.	.	.	.
.	.	.	.	.	.	.
.	.	.	.	.	.	.
=5	=5	=5	=5	=5	=5	=5
*	*head:regular	*head:x	*	*	*	*
6C	4re	12Ree/	4G	1ryy	4c e b	A h
.	.	.	.	.	.	.
.	.	12ree	.	.	.	.
.	.	.	.	.	.	.
12r	.	12ree	.	.	.	.
.	.	.	.	.	.	.
8.BB	4re	12Ree/	4r	.	4r	.
.	.	.	.	.	.	.
.	.	12ree	.	.	.	.
.	.	.	.	.	.	.
.	.	12ree	.	.	.	.
16r	.	.	.	.	.	.
4AA	4re	12Ree/	4G	.	4c e b	.
.	.	.	.	.	.	.
.	.	12ree	.	.	.	.
.	.	.	.	.	.	.
.	.	12ree	.	.	.	.
.	.	.	.	.	.	.
4C	4re	12Ree/	4r	.	4r	.
.	.	.	.	.	.	.
.	.	12ree	.	.	.	.
.	.	.	.	.	.	.
.	.	12ree	.	.	.	.
.	.	.	.	.	.	.
=6	=6	=6	=6	=6	=6	=6
*	*head:regular	*head:x	*	*	*	*
8DD	4re	12Ree/	4r	1ryy	4r	D 9
.	.	.	.	.	.	.
.	.	12ree	.	.	.	.
8r	.	.	.	.	.	.
.	.	12ree	.	.	.	.
.	.	.	.	.	.	.
4AAA#	4re	16Ree/	4r	.	4r	.
.	.	16ree	.	.	.	.
.	.	.	.	.	.	.
.	.	8ree	.	.	.	.
.	.	.	.	.	.	.
.	.	.	.	.	.	.
4AAA	4re	12Ree/	6F#	.	6c e a	.
.	.	.	.	.	.	.
.	.	12ree	.	.	.	.
.	.	.	.	.	.	.
.	.	12ree	12r	.	12r	.
.	.	.	.	.	.	.
6CC	4re	12Ree/	4r	.	4r	.
.	.	.	.	.	.	.
.	.	12ree	.	.	.	.
.	.	.	.	.	.	.
12r	.	12ree	.	.	.	.
.	.	.	.	.	.	.
=7	=7	=7	=7	=7	=7	=7
*	*head:regular	*head:x	*	*	*	*
4DD	4re	12Ree/	4r	1ryy	4r	D h
.	.	.	.	.	.	.
.	.	12ree	.	.	.	.
.	.	.	.	.	.	.
.	.	12ree	.	.	.	.
.	.	.	.	.	.	.
4AAA#	4re	12Ree/	4r	.	4r	.
.	.	.	.	.	.	.
.	.	12ree	.	.	.	.
.	.	.	.	.	.	.
.	.	12ree	.	.	.	.
.	.	.	.	.	.	.
4AAA	4re	12Ree/	4F	.	4c e a	.
.	.	.	.	.	.	.
.	.	12ree	.	.	.	.
.	.	.	.	.	.	.
.	.	12ree	.	.	.	.
.	.	.	.	.	.	.
4CC	4re	12Ree/	4r	.	4r	.
.	.	.	.	.	.	.
.	.	12ree	.	.	.	.
.	.	.	.	.	.	.
.	.	12ree	.	.	.	.
.	.	.	.	.	.	.
=8	=8	=8	=8	=8	=8	=8
*	*head:regular	*head:x	*	*	*	*
4CC#	4re	12Ree/	4F B	1ryy	4d a#	C+ u
.	.	.	.	.	.	.
.	.	12ree	.	.	.	.
.	.	.	.	.	.	.
.	.	12ree	.	.	.	.
.	.	.	.	.	.	.
4GG	4re	12Ree/	4r	.	4r	.
.	.	.	.	.	.	.
.	.	12ree	.	.	.	.
.	.	.	.	.	.	.
.	.	12ree	.	.	.	.
.	.	.	.	.	.	.
8GG#	4re	16Ree/	4F B	.	4d a#	.
.	.	16ree	.	.	.	.
.	.	.	.	.	.	.
8r	.	8ree	.	.	.	.
.	.	.	.	.	.	.
.	.	.	.	.	.	.
8C#	4re	4ree	4r	.	4r	.
.	.	.	.	.	.	.
.	.	.	.	.	.	.
8r	.	.	.	.	.	.
.	.	.	.	.	.	.
.	.	.	.	.	.	.
=9	=9	=9	=9	=9	=9	=9
*	*head:regular	*head:x	*	*	*	*
4CC	4re	4ree	4r	1ryy	4r	C e
.	.	.	.	.	.	.
.	.	.	.	.	.	.
.	.	.	.	.	.	.
.	.	.	.	.	.	.
.	.	.	.	.	.	.
8.CC	4re	12Ree/	4r	.	4r	.
.	.	.	.	.	.	.
.	.	12ree	.	.	.	.
.	.	.	.	.	.	.
.	.	12ree	.	.	.	.
16r	.	.	.	.	.	.
6CC	4re	12Ree/	4E B	.	4d a	.
.	.	.	.	.	.	.
.	.	12ree	.	.	.	.
.	.	.	.	.	.	.
12r	.	12ree	.	.	.	.
.	.	.	.	.	.	.
4GGG	4re	12Ree/	4r	.	4r	.
.	.	.	.	.	.	.
.	.	12ree	.	.	.	.
.	.	.	.	.	.	.
.	.	12ree	.	.	.	.
.	.	.	.	.	.	.
=10	=10	=10	=10	=10	=10	=10
*	*head:regular	*head:x	*	*	*	*
4FFF#	4re	12Ree/	4r	1ryy	4r	G t
.	.	.	.	.	.	.
.	.	12ree	.	.	.	.
.	.	.	.	.	.	.
.	.	12ree	.	.	.	.
.	.	.	.	.	.	.
4AAA#	4re	16Ree/	4r	.	4r	.
.	.	16ree	.	.	.	.
.	.	.	.	.	.	.
.	.	8ree	.	.	.	.
.	.	.	.	.	.	.
.	.	.	.	.	.	.
4AAA#	4re	12Ree/	4E A#	.	4c f#	.
.	.	.	.	.	.	.
.	.	12ree	.	.	.	.
.	.	.	.	.	.	.
.	.	12ree	.	.	.	.
.	.	.	.	.	.	.
8.CC#	4re	12Ree/	4r	.	4r	.
.	.	.	.	.	.	.
.	.	12ree	.	.	.	.
.	.	.	.	.	.	.
.	.	12ree	.	.	.	.
16r	.	.	.	.	.	.
=11	=11	=11	=11	=11	=11	=11
*	*head:regular	*head:x	*	*	*	*
8FF	4re	12Ree/	4r	1ryy	4r	F e
.	.	.	.	.	.	.
.	.	12ree	.	.	.	.
8r	.	.	.	.	.	.
.	.	12ree	.	.	.	.
.	.	.	.	.	.	.
4AA	4re	12Ree/	4r	.	4r	.
.	.	.	.	.	.	.
.	.	12ree	.	.	.	.
.	.	.	.	.	.	.
.	.	12ree	.	.	.	.
.	.	.	.	.	.	.
4CC	4re	12Ree/	4A	.	4e g dd	.
.	.	.	.	.	.	.
.	.	12ree	.	.	.	.
.	.	.	.	.	.	.
.	.	12ree	.	.	.	.
.	.	.	.	.	.	.
4BBB	4re	16Ree/	4r	.	4r	.
.	.	16ree	.	.	.	.
.	.	.	.	.	.	.
.	.	8ree	.	.	.	.
.	.	.	.	.	.	.
.	.	.	.	.	.	.
=12	=12	=12	=12	=12	=12	=12
*	*head:regular	*head:x	*	*	*	*
4AAA#	4re	12Ree/	4D G A#	1ryy	4e	E W
.	.	.	.	.	.	.
.	.	12ree	.	.	.	.
.	.	.	.	.	.	.
.	.	12ree	.	.	.	.
.	.	.	.	.	.	.
4AAA#	4re	12Ree/	4r	.	4r	.
.	.	.	.	.	.	.
.	.	12ree	.	.	.	.
.	.	.	.	.	.	.
.	.	12ree	.	.	.	.
.	.	.	.	.	.	.
4AAA	4re	12Ree/	4r	.	4r	A S
.	.	.	.	.	.	.
.	.	12ree	.	.	.	.
.	.	.	.	.	.	.
.	.	12ree	.	.	.	.
.	.	.	.	.	.	.
4BBB	4re	12Ree/	4r	.	4r	.
.	.	.	.	.	.	.
.	.	12ree	.	.	.	.
.	.	.	.	.	.	.
.	.	12ree	.	.	.	.
.	.	.	.	.	.	.
=13	=13	=13	=13	=13	=13	=13
*	*head:regular	*head:x	*	*	*	*
4CC	4re	12Ree/	4r	1ryy	4c g b ee	A h
.	.	.	.	.	.	.
.	.	12ree	.	.	.	.
.	.	.	.	.	.	.
.	.	12ree	.	.	.	.
.	.	.	.	.	.	.
4AAA	4re	12Ree/	4r	.	4r	.
.	.	.	.	.	.	.
.	.	12ree	.	.	.	.
.	.	.	.	.	.	.
.	.	12ree	.	.	.	.
.	.	.	.	.	.	.
6EE	4re	12Ree/	4r	.	4r	.
.	.	.	.	.	.	.
.	.	12ree	.	.	.	.
.	.	.	.	.	.	.
12r	.	12ree	.	.	.	.
.	.	.	.	.	.	.
4C#	4re	12Ree/	4r	.	4r	.
.	.	.	.	.	.	.
.	.	12ree	.	.	.	.
.	.	.	.	.	.	.
.	.	12ree	.	.	.	.
.	.	.	.	.	.	.
=14	=14	=14	=14	=14	=14	=14
*	*head:regular	*head:x	*	*	*	*
4D	4re	16Ree/	4F#	1ryy	4c e a	D 9
.	.	16ree	.	.	.	.
.	.	.	.	.	.	.
.	.	8ree	.	.	.	.
.	.	.	.	.	.	.
.	.	.	.	.	.	.
4F#	4re	16Ree/	4r	.	4r	.
.	.	16ree	.	.	.	.
.	.	.	.	.	.	.
.	.	8ree	.	.	.	.
.	.	.	.	.	.	.
.	.	.	.	.	.	.
4AA	4re	12Ree/	4r	.	4r	.
.	.	.	.	.	.	.
.	.	12ree	.	.	.	.
.	.	.	.	.	.	.
.	.	12ree	.	.	.	.
.	.	.	.	.	.	.
8.D	4re	12Ree/	4r	.	4r	.
.	.	.	.	.	.	.
.	.	12ree	.	.	.	.
.	.	.	.	.	.	.
.	.	12ree	.	.	.	.
16r	.	.	.	.	.	.
=15	=15	=15	=15	=15	=15	=15
*	*head:regular	*head:x	*	*	*	*
8DD	12Rf\	12Ree/	8.C F A	1ryy	8.e	D h
.	.	.	.	.	.	.
.	12re	12ree	.	.	.	.
8r	.	.	.	.	.	.
.	12re	12ree	.	.	.	.
.	.	.	16r	.	16r	.
8.AAA	4re	12Ree/	8.C F A	.	8.e	.
.	.	.	.	.	.	.
.	.	12ree	.	.	.	.
.	.	.	.	.	.	.
.	.	12ree	.	.	.	.
16r	.	.	16r	.	16r	.
4AAA	4re	4ree	8.F	.	8.c e a dd aa	.
.	.	.	.	.	.	.
.	.	.	.	.	.	.
.	.	.	.	.	.	.
.	.	.	.	.	.	.
.	.	.	16r	.	16r	.
4BBB	4re	12Ree/	8.C F A	.	8.e	.
.	.	.	.	.	.	.
.	.	12ree	.	.	.	.
.	.	.	.	.	.	.
.	.	12ree	.	.	.	.
.	.	.	16r	.	16r	.
=16	=16	=16	=16	=16	=16	=16
*	*head:regular	*head:x	*	*	*	*
4BBB	4re	12Ree/	6BB F A	1ryy	6e	G U
.	.	.	.	.	.	.
.	.	12ree	.	.	.	.
.	.	.	.	.	.	.
.	.	12ree	12r	.	12r	.
.	.	.	.	.	.	.
4GGG	4re	12Ree/	4r	.	4r	.
.	.	.	.	.	.	.
.	.	12ree	.	.	.	.
.	.	.	.	.	.	.
.	.	12ree	.	.	.	.
.	.	.	.	.	.	.
8GGG	4re	4ree	4F A B	.	4e g dd gg	.
.	.	.	.	.	.	.
.	.	.	.	.	.	.
8r	.	.	.	.	.	.
.	.	.	.	.	.	.
.	.	.	.	.	.	.
8DD	4re	4ree	4r	.	4r	.
.	.	.	.	.	.	.
.	.	.	.	.	.	.
8r	.	.	.	.	.	.
.	.	.	.	.	.	.
.	.	.	.	.	.	.
=17	=17	=17	=17	=17	=17	=17
*	*head:regular	*head:x	*	*	*	*
6GGG	4re	4ree	4r	1ryy	4r	G h
.	.	.	.	.	.	.
.	.	.	.	.	.	.
.	.	.	.	.	.	.
12r	.	.	.	.	.	.
.	.	.	.	.	.	.
4DD	4re	16Ree/	4r	.	4r	.
.	.	16ree	.	.	.	.
.	.	.	.	.	.	.
.	.	8ree	.	.	.	.
.	.	.	.	.	.	.
.	.	.	.	.	.	.
4GG	4re	4ree	4F A#	.	4d a	.
.	.	.	.	.	.	.
.	.	.	.	.	.	.
.	.	.	.	.	.	.
.	.	.	.	.	.	.
.	.	.	.	.	.	.
4GGG	4re	16Ree/	4r	.	4r	.
.	.	16ree	.	.	.	.
.	.	.	.	.	.	.
.	.	8ree	.	.	.	.
.	.	.	.	.	.	.
.	.	.	.	.	.	.
=18	=18	=18	=18	=18	=18	=18
*	*head:regular	*head:x	*	*	*	*
4FFF#	4re	4ree	4r	1ryy	4r	F+ ?
.	.	.	.	.	.	.
.	.	.	.	.	.	.
.	.	.	.	.	.	.
.	.	.	.	.	.	.
.	.	.	.	.	.	.
4AAA	4re	16Ree/	4r	.	4r	.
.	.	16ree	.	.	.	.
.	.	.	.	.	.	.
.	.	8ree	.	.	.	.
.	.	.	.	.	.	.
.	.	.	.	.	.	.
4CC#	4re	4ree	6E A#	.	6a dd aa	.
.	.	.	.	.	.	.
.	.	.	.	.	.	.
.	.	.	.	.	.	.
.	.	.	12r	.	12r	.
.	.	.	.	.	.	.
4AAA#	4re	16Ree/	4r	.	4r	.
.	.	16ree	.	.	.	.
.	.	.	.	.	.	.
.	.	8ree	.	.	.	.
.	.	.	.	.	.	.
.	.	.	.	.	.	.
=19	=19	=19	=19	=19	=19	=19
*	*head:regular	*head:x	*	*	*	*
4AAA	4re	4ree	4r	1ryy	4r	F d
.	.	.	.	.	.	.
.	.	.	.	.	.	.
.	.	.	.	.	.	.
.	.	.	.	.	.	.
.	.	.	.	.	.	.
6FFF	4re	16Ree/	4r	.	4r	.
.	.	16ree	.	.	.	.
.	.	.	.	.	.	.
.	.	8ree	.	.	.	.
12r	.	.	.	.	.	.
.	.	.	.	.	.	.
4CC	4re	4ree	4A	.	4e g cc	.
.	.	.	.	.	.	.
.	.	.	.	.	.	.
.	.	.	.	.	.	.
.	.	.	.	.	.	.
.	.	.	.	.	.	.
4FF	4re	16Ree/	4r	.	4r	.
.	.	16ree	.	.	.	.
.	.	.	.	.	.	.
.	.	8ree	.	.	.	.
.	.	.	.	.	.	.
.	.	.	.	.	.	.
=20	=20	=20	=20	=20	=20	=20
*	*head:regular	*head:x	*	*	*	*
4FF	4re	4ree	4r	1ryy	4r	B 9
.	.	.	.	.	.	.
.	.	.	.	.	.	.
.	.	.	.	.	.	.
.	.	.	.	.	.	.
.	.	.	.	.	.	.
4DD	4re	16Ree/	4G#	.	4d f cc	.
.	.	16ree	.	.	.	.
.	.	.	.	.	.	.
.	.	8ree	.	.	.	.
.	.	.	.	.	.	.
.	.	.	.	.	.	.
4DD	4re	4ree	4r	.	4r	.
.	.	.	.	.	.	.
.	.	.	.	.	.	.
.	.	.	.	.	.	.
.	.	.	.	.	.	.
.	.	.	.	.	.	.
4CC	4re	16Ree/	8.G#	.	8.d f cc ff ccc	.
.	.	16ree	.	.	.	.
.	.	.	.	.	.	.
.	.	8ree	.	.	.	.
.	.	.	.	.	.	.
.	.	.	16r	.	16r	.
=21	=21	=21	=21	=21	=21	=21
*	*head:regular	*head:x	*	*	*	*
6BBB	4re	4ree	6G	1ryy	6d f# a	E i
.	.	.	.	.	.	.
.	.	.	.	.	.	.
.	.	.	.	.	.	.
12r	.	.	12r	.	12r	.
.	.	.	.	.	.	.
8.GGG#	4re	16Ree/	4r	.	4r	.
.	.	16ree	.	.	.	.
.	.	.	.	.	.	.
.	.	8ree	.	.	.	.
.	.	.	.	.	.	.
16r	.	.	.	.	.	.
4GGG	4re	4ree	4r	.	4r	.
.	.	.	.	.	.	.
.	.	.	.	.	.	.
.	.	.	.	.	.	.
.	.	.	.	.	.	.
.	.	.	.	.	.	.
4CC	4re	16Ree/	4r	.	4r	.
.	.	16ree	.	.	.	.
.	.	.	.	.	.	.
.	.	8ree	.	.	.	.
.	.	.	.	.	.	.
.	.	.	.	.	.	.
=22	=22	=22	=22	=22	=22	=22
*	*head:regular	*head:x	*	*	*	*
8CC#	4re	4ree	4r	1ryy	4r	A U
.	.	.	.	.	.	.
.	.	.	.	.	.	.
8r	.	.	.	.	.	.
.	.	.	.	.	.	.
.	.	.	.	.	.	.
4EE	4re	16Ree/	4r	.	4r	.
.	.	16ree	.	.	.	.
.	.	.	.	.	.	.
.	.	8ree	.	.	.	.
.	.	.	.	.	.	.
.	.	.	.	.	.	.
4EE	4re	4ree	6G B	.	6c# f# a ee aa	.
.	.	.	.	.	.	.
.	.	.	.	.	.	.
.	.	.	.	.	.	.
.	.	.	12r	.	12r	.
.	.	.	.	.	.	.
6AA	4re	16Ree/	4r	.	4r	.
.	.	16ree	.	.	.	.
.	.	.	.	.	.	.
.	.	8ree	.	.	.	.
12r	.	.	.	.	.	.
.	.	.	.	.	.	.
=23	=23	=23	=23	=23	=23	=23
*	*head:regular	*head:x	*	*	*	*
4D	4re	4ree	4r	1ryy	4r	D U
.	.	.	.	.	.	.
.	.	.	.	.	.	.
.	.	.	.	.	.	.
.	.	.	.	.	.	.
.	.	.	.	.	.	.
4AA	4re	16Ree/	4r	.	4r	.
.	.	16ree	.	.	.	.
.	.	.	.	.	.	.
.	.	8ree	.	.	.	.
.	.	.	.	.	.	.
.	.	.	.	.	.	.
4FF#	4re	4ree	4r	.	4r	.
.	.	.	.	.	.	.
.	.	.	.	.	.	.
.	.	.	.	.	.	.
.	.	.	.	.	.	.
.	.	.	.	.	.	.
4CC	4re	16Ree/	4r	.	4r	.
.	.	16ree	.	.	.	.
.	.	.	.	.	.	.
.	.	8ree	.	.	.	.
.	.	.	.	.	.	.
.	.	.	.	.	.	.
=24	=24	=24	=24	=24	=24	=24
*	*head:regular	*head:x	*	*	*	*
4BBB	4re	4ree	6F B	1ryy	6d# g dd gg	G q
.	.	.	.	.	.	.
.	.	.	.	.	.	.
.	.	.	.	.	.	.
.	.	.	12r	.	12r	.
.	.	.	.	.	.	.
4DD#	4re	16Ree/	12F B	.	12d# g dd gg	.
.	.	16ree	.	.	.	.
.	.	.	12r	.	12r	.
.	.	8ree	.	.	.	.
.	.	.	12r	.	12r	.
.	.	.	.	.	.	.
8GGG	4re	4ree	4F B	.	4d# g	.
.	.	.	.	.	.	.
.	.	.	.	.	.	.
8r	.	.	.	.	.	.
.	.	.	.	.	.	.
.	.	.	.	.	.	.
8BBB	4re	16Ree/	4r	.	4r	.
.	.	16ree	.	.	.	.
.	.	.	.	.	.	.
8r	.	8ree	.	.	.	.
.	.	.	.	.	.	.
.	.	.	.	.	.	.
=25	=25	=25	=25	=25	=25	=25
*	*head:regular	*head:x	*	*	*	*
4CC	4re	4ree	4r	1ryy	4r	C d
.	.	.	.	.	.	.
.	.	.	.	.	.	.
.	.	.	.	.	.	.
.	.	.	.	.	.	.
.	.	.	.	.	.	.
8.GGG#	4re	12Ree/	4r	.	4r	.
.	.	.	.	.	.	.
.	.	12ree	.	.	.	.
.	.	.	.	.	.	.
.	.	12ree	.	.	.	.
16r	.	.	.	.	.	.
6GGG	4re	12Ree/	4r	.	4r	.
.	.	.	.	.	.	.
.	.	12ree	.	.	.	.
.	.	.	.	.	.	.
12r	.	12ree	.	.	.	.
.	.	.	.	.	.	.
4CC	4re	16Ree/	4r	.	4r	.
.	.	16ree	.	.	.	.
.	.	.	.	.	.	.
.	.	8ree	.	.	.	.
.	.	.	.	.	.	.
.	.	.	.	.	.	.
=26	=26	=26	=26	=26	=26	=26
*	*head:regular	*head:x	*	*	*	*
4CC#	4re	12Ree/	4r	1ryy	4r	G t
.	.	.	.	.	.	.
.	.	12ree	.	.	.	.
.	.	.	.	.	.	.
.	.	12ree	.	.	.	.
.	.	.	.	.	.	.
4EE	4re	12Ree/	4r	.	4r	.
.	.	.	.	.	.	.
.	.	12ree	.	.	.	.
.	.	.	.	.	.	.
.	.	12ree	.	.	.	.
.	.	.	.	.	.	.
4FF#	4re	12Ree/	6E A#	.	6c# f# cc ff#	.
.	.	.	.	.	.	.
.	.	12ree	.	.	.	.
.	.	.	.	.	.	.
.	.	12ree	12r	.	12r	.
.	.	.	.	.	.	.
8.CC#	4re	12Ree/	4r	.	4r	.
.	.	.	.	.	.	.
.	.	12ree	.	.	.	.
.	.	.	.	.	.	.
.	.	12ree	.	.	.	.
16r	.	.	.	.	.	.
=27	=27	=27	=27	=27	=27	=27
*	*head:regular	*head:x	*	*	*	*
8FFF	4re	12Ree/	4r	1ryy	4r	F d
.	.	.	.	.	.	.
.	.	12ree	.	.	.	.
8r	.	.	.	.	.	.
.	.	12ree	.	.	.	.
.	.	.	.	.	.	.
4CC	4re	16Ree/	4r	.	4r	.
.	.	16ree	.	.	.	.
.	.	.	.	.	.	.
.	.	8ree	.	.	.	.
.	.	.	.	.	.	.
.	.	.	.	.	.	.
4CC	4re	12Ree/	4r	.	4r	.
.	.	.	.	.	.	.
.	.	12ree	.	.	.	.
.	.	.	.	.	.	.
.	.	12ree	.	.	.	.
.	.	.	.	.	.	.
4GGG#	12Rf\	16Ree/	4r	.	4r	.
.	.	16ree	.	.	.	.
.	12re	.	.	.	.	.
.	.	8ree	.	.	.	.
.	12re	.	.	.	.	.
.	.	.	.	.	.	.
=28	=28	=28	=28	=28	=28	=28
*	*head:regular	*head:x	*	*	*	*
4GGG	4re	12Ree/	6D G A#	1ryy	6e	E W
.	.	.	.	.	.	.
.	.	12ree	.	.	.	.
.	.	.	.	.	.	.
.	.	12ree	12r	.	12r	.
.	.	.	.	.	.	.
4AAA#	4re	12Ree/	12G	.	12d e a# dd aa#	.
.	.	.	.	.	.	.
.	.	12ree	12r	.	12r	.
.	.	.	.	.	.	.
.	.	12ree	12r	.	12r	.
.	.	.	.	.	.	.
4CC#	4re	12Ree/	4r	.	4r	A S
.	.	.	.	.	.	.
.	.	12ree	.	.	.	.
.	.	.	.	.	.	.
.	.	12ree	.	.	.	.
.	.	.	.	.	.	.
4EE	4re	12Ree/	4r	.	4r	.
.	.	.	.	.	.	.
.	.	12ree	.	.	.	.
.	.	.	.	.	.	.
.	.	12ree	.	.	.	.
.	.	.	.	.	.	.
=29	=29	=29	=29	=29	=29	=29
*	*head:regular	*head:x	*	*	*	*
4AA	16Rf\	16Ree/	4r	1ryy	4r	D i
.	16re	16ree	.	.	.	.
.	.	.	.	.	.	.
.	8re	8ree	.	.	.	.
.	.	.	.	.	.	.
.	.	.	.	.	.	.
4GG	4re	16Ree/	4r	.	4r	.
.	.	16ree	.	.	.	.
.	.	.	.	.	.	.
.	.	8ree	.	.	.	.
.	.	.	.	.	.	.
.	.	.	.	.	.	.
6DD	4re	16Ree/	4r	.	4r	.
.	.	16ree	.	.	.	.
.	.	.	.	.	.	.
.	.	8ree	.	.	.	.
12r	.	.	.	.	.	.
.	.	.	.	.	.	.
4FF	4re	16Ree/	4r	.	4r	.
.	.	16ree	.	.	.	.
.	.	.	.	.	.	.
.	.	8ree	.	.	.	.
.	.	.	.	.	.	.
.	.	.	.	.	.	.
=30	=30	=30	=30	=30	=30	=30
*	*head:regular	*head:x	*	*	*	*
4CC#	4re	16Ree/	4r	1ryy	4r	C+ U
.	.	16ree	.	.	.	.
.	.	.	.	.	.	.
.	.	8ree	.	.	.	.
.	.	.	.	.	.	.
.	.	.	.	.	.	.
4GGG#	4re	16Ree/	12B	.	12f a# dd#	.
.	.	16ree	.	.	.	.
.	.	.	12r	.	12r	.
.	.	8ree	.	.	.	.
.	.	.	12r	.	12r	.
.	.	.	.	.	.	.
4GGG#	4re	16Ree/	4B	.	4f a# dd#	.
.	.	16ree	.	.	.	.
.	.	.	.	.	.	.
.	.	8ree	.	.	.	.
.	.	.	.	.	.	.
.	.	.	.	.	.	.
8.BBB	4re	16Ree/	4r	.	4r	.
.	.	16ree	.	.	.	.
.	.	.	.	.	.	.
.	.	8ree	.	.	.	.
.	.	.	.	.	.	.
16r	.	.	.	.	.	.
=31	=31	=31	=31	=31	=31	=31
*	*head:regular	*head:x	*	*	*	*
8CC	4re	16Ree/	4r	1ryy	4r	C 6
.	.	16ree	.	.	.	.
.	.	.	.	.	.	.
8r	.	8ree	.	.	.	.
.	.	.	.	.	.	.
.	.	.	.	.	.	.
8.GGG	4re	16Ree/	4r	.	4r	.
.	.	16ree	.	.	.	.
.	.	.	.	.	.	.
.	.	8ree	.	.	.	.
.	.	.	.	.	.	.
16r	.	.	.	.	.	.
4GG	4re	16Ree/	4r	.	4r	.
.	.	16ree	.	.	.	.
.	.	.	.	.	.	.
.	.	8ree	.	.	.	.
.	.	.	.	.	.	.
.	.	.	.	.	.	.
4EE	4re	16Ree/	4r	.	4r	.
.	.	16ree	.	.	.	.
.	.	.	.	.	.	.
.	.	8ree	.	.	.	.
.	.	.	.	.	.	.
.	.	.	.	.	.	.
=32	=32	=32	=32	=32	=32	=32
*	*head:regular	*head:x	*	*	*	*
4C	4re	16Ree/	4r	1ryy	4r	C 6
.	.	16ree	.	.	.	.
.	.	.	.	.	.	.
.	.	8ree	.	.	.	.
.	.	.	.	.	.	.
.	.	.	.	.	.	.
4E	4re	16Ree/	12E	.	12c g a cc	.
.	.	16ree	.	.	.	.
.	.	.	12r	.	12r	.
.	.	8ree	.	.	.	.
.	.	.	12r	.	12r	.
.	.	.	.	.	.	.
8GG	4re	16Ree/	4BB F A	.	4d	G 9
.	.	16ree	.	.	.	.
.	.	.	.	.	.	.
8r	.	8ree	.	.	.	.
.	.	.	.	.	.	.
.	.	.	.	.	.	.
8FF	16Rf\	16Ree/	4r	.	4r	.
.	16re	16ree	.	.	.	.
.	.	.	.	.	.	.
8r	8re	8ree	.	.	.	.
.	.	.	.	.	.	.
.	.	.	.	.	.	.
=33	=33	=33	=33	=33	=33	=33
*	*head:regular	*head:x	*	*	*	*
4CC	4re	4ree	4r	1ryy	4r	C d
.	.	.	.	.	.	.
.	.	.	.	.	.	.
.	.	.	.	.	.	.
.	.	.	.	.	.	.
.	.	.	.	.	.	.
4BBB	4re	12Ree/	4r	.	4r	.
.	.	.	.	.	.	.
.	.	12ree	.	.	.	.
.	.	.	.	.	.	.
.	.	12ree	.	.	.	.
.	.	.	.	.	.	.
4GGG	4re	12Ree/	4E B	.	4d g	.
.	.	.	.	.	.	.
.	.	12ree	.	.	.	.
.	.	.	.	.	.	.
.	.	12ree	.	.	.	.
.	.	.	.	.	.	.
6EEE	4re	16Ree/	4r	.	4r	.
.	.	16ree	.	.	.	.
.	.	.	.	.	.	.
.	.	8ree	.	.	.	.
12r	.	.	.	.	.	.
.	.	.	.	.	.	.
=34	=34	=34	=34	=34	=34	=34
*	*head:regular	*head:x	*	*	*	*
4CC#	4re	12Ree/	4r	1ryy	4r	G t
.	.	.	.	.	.	.
.	.	12ree	.	.	.	.
.	.	.	.	.	.	.
.	.	12ree	.	.	.	.
.	.	.	.	.	.	.
4FF#	4re	12Ree/	4r	.	4r	.
.	.	.	.	.	.	.
.	.	12ree	.	.	.	.
.	.	.	.	.	.	.
.	.	12ree	.	.	.	.
.	.	.	.	.	.	.
4FFF#	4re	12Ree/	4E A#	.	4c f#	.
.	.	.	.	.	.	.
.	.	12ree	.	.	.	.
.	.	.	.	.	.	.
.	.	12ree	.	.	.	.
.	.	.	.	.	.	.
8CC#	4re	12Ree/	4r	.	4r	.
.	.	.	.	.	.	.
.	.	12ree	.	.	.	.
8r	.	.	.	.	.	.
.	.	12ree	.	.	.	.
.	.	.	.	.	.	.
=35	=35	=35	=35	=35	=35	=35
*	*head:regular	*head:x	*	*	*	*
8.CC	4re	12Ree/	4r	1ryy	4r	F d
.	.	.	.	.	.	.
.	.	12ree	.	.	.	.
.	.	.	.	.	.	.
.	.	12ree	.	.	.	.
16r	.	.	.	.	.	.
4EE	4re	12Ree/	4r	.	4r	.
.	.	.	.	.	.	.
.	.	12ree	.	.	.	.
.	.	.	.	.	.	.
.	.	12ree	.	.	.	.
.	.	.	.	.	.	.
4FF	4re	12Ree/	4A	.	4e g cc ff ccc	.
.	.	.	.	.	.	.
.	.	12ree	.	.	.	.
.	.	.	.	.	.	.
.	.	12ree	.	.	.	.
.	.	.	.	.	.	.
4CC	4re	12Ree/	4r	.	4r	.
.	.	.	.	.	.	.
.	.	12ree	.	.	.	.
.	.	.	.	.	.	.
.	.	12ree	.	.	.	.
.	.	.	.	.	.	.
=36	=36	=36	=36	=36	=36	=36
*	*head:regular	*head:x	*	*	*	*
4GGG	4re	12Ree/	4G	1ryy	4d e a#	E W
.	.	.	.	.	.	.
.	.	12ree	.	.	.	.
.	.	.	.	.	.	.
.	.	12ree	.	.	.	.
.	.	.	.	.	.	.
4EEE	4re	12Ree/	4r	.	4r	.
.	.	.	.	.	.	.
.	.	12ree	.	.	.	.
.	.	.	.	.	.	.
.	.	12ree	.	.	.	.
.	.	.	.	.	.	.
4CC#	4re	12Ree/	4r	.	4r	A S
.	.	.	.	.	.	.
.	.	12ree	.	.	.	.
.	.	.	.	.	.	.
.	.	12ree	.	.	.	.
.	.	.	.	.	.	.
6AAA#	4re	16Ree/	4r	.	4r	.
.	.	16ree	.	.	.	.
.	.	.	.	.	.	.
.	.	8ree	.	.	.	.
12r	.	.	.	.	.	.
.	.	.	.	.	.	.
=37	=37	=37	=37	=37	=37	=37
*	*head:regular	*head:x	*	*	*	*
6EEE	4re	16Ree/	4r	1ryy	4r	A h
.	.	16ree	.	.	.	.
.	.	.	.	.	.	.
.	.	8ree	.	.	.	.
12r	.	.	.	.	.	.
.	.	.	.	.	.	.
4AAA	4re	16Ree/	4r	.	4r	.
.	.	16ree	.	.	.	.
.	.	.	.	.	.	.
.	.	8ree	.	.	.	.
.	.	.	.	.	.	.
.	.	.	.	.	.	.
4CC	4re	16Ree/	4r	.	4r	.
.	.	16ree	.	.	.	.
.	.	.	.	.	.	.
.	.	8ree	.	.	.	.
.	.	.	.	.	.	.
.	.	.	.	.	.	.
4FF	4re	16Ree/	4r	.	4r	.
.	.	16ree	.	.	.	.
.	.	.	.	.	.	.
.	.	8ree	.	.	.	.
.	.	.	.	.	.	.
.	.	.	.	.	.	.
=38	=38	=38	=38	=38	=38	=38
*	*head:regular	*head:x	*	*	*	*
4FF#	4re	16Ree/	4r	1ryy	4r	D 7
.	.	16ree	.	.	.	.
.	.	.	.	.	.	.
.	.	8ree	.	.	.	.
.	.	.	.	.	.	.
.	.	.	.	.	.	.
4DD#	4re	16Ree/	4r	.	4r	.
.	.	16ree	.	.	.	.
.	.	.	.	.	.	.
.	.	8ree	.	.	.	.
.	.	.	.	.	.	.
.	.	.	.	.	.	.
4DD	4re	16Ree/	4r	.	6c f# a dd	.
.	.	16ree	.	.	.	.
.	.	.	.	.	.	.
.	.	8ree	.	.	.	.
.	.	.	.	.	12r	.
.	.	.	.	.	.	.
4FF#	4re	16Ree/	4r	.	4c f# a dd	.
.	.	16ree	.	.	.	.
.	.	.	.	.	.	.
.	.	8ree	.	.	.	.
.	.	.	.	.	.	.
.	.	.	.	.	.	.
=39	=39	=39	=39	=39	=39	=39
*	*head:regular	*head:x	*	*	*	*
4DD	4re	16Ree/	4r	1ryy	4r	D h
.	.	16ree	.	.	.	.
.	.	.	.	.	.	.
.	.	8ree	.	.	.	.
.	.	.	.	.	.	.
.	.	.	.	.	.	.
6CC	16Rcc\	16Ree/	4r	.	4r	.
.	16re	16ree	.	.	.	.
.	.	.	.	.	.	.
.	8re	8ree	.	.	.	.
12r	.	.	.	.	.	.
.	.	.	.	.	.	.
4AAA	4re	16Ree/	4C F A	.	4e	.
.	.	16ree	.	.	.	.
.	.	.	.	.	.	.
.	.	8ree	.	.	.	.
.	.	.	.	.	.	.
.	.	.	.	.	.	.
4CC	4re	16Ree/	4r	.	4r	.
.	.	16ree	.	.	.	.
.	.	.	.	.	.	.
.	.	8ree	.	.	.	.
.	.	.	.	.	.	.
.	.	.	.	.	.	.
=40	=40	=40	=40	=40	=40	=40
*	*head:regular	*head:x	*	*	*	*
4CC#	4re	16Ree/	4r	1ryy	4r	C+ 9
.	.	16ree	.	.	.	.
.	.	.	.	.	.	.
.	.	8ree	.	.	.	.
.	.	.	.	.	.	.
.	.	.	.	.	.	.
4DD#	4re	16Ree/	12F B	.	12d# g#	.
.	.	16ree	.	.	.	.
.	.	.	12r	.	12r	.
.	.	8ree	.	.	.	.
.	.	.	12r	.	12r	.
.	.	.	.	.	.	.
8FF	4re	4ree	4F B	.	4d# g#	.
.	.	.	.	.	.	.
.	.	.	.	.	.	.
8r	.	.	.	.	.	.
.	.	.	.	.	.	.
.	.	.	.	.	.	.
8GG#	4re	16Ree/	4r	.	4r	.
.	.	16ree	.	.	.	.
.	.	.	.	.	.	.
8r	.	8ree	.	.	.	.
.	.	.	.	.	.	.
.	.	.	.	.	.	.
=41	=41	=41	=41	=41	=41	=41
*	*head:regular	*head:x	*	*	*	*
6C	4re	4ree	4r	1ryy	4r	C e
.	.	.	.	.	.	.
.	.	.	.	.	.	.
.	.	.	.	.	.	.
12r	.	.	.	.	.	.
.	.	.	.	.	.	.
8.E	4re	16Ree/	4r	.	4r	.
.	.	16ree	.	.	.	.
.	.	.	.	.	.	.
.	.	8ree	.	.	.	.
.	.	.	.	.	.	.
16r	.	.	.	.	.	.
4GG	4re	16Ree/	4E B	.	4d a	.
.	.	16ree	.	.	.	.
.	.	.	.	.	.	.
.	.	8ree	.	.	.	.
.	.	.	.	.	.	.
.	.	.	.	.	.	.
4CC	4re	16Ree/	4r	.	4r	.
.	.	16ree	.	.	.	.
.	.	.	.	.	.	.
.	.	8ree	.	.	.	.
.	.	.	.	.	.	.
.	.	.	.	.	.	.
=42	=42	=42	=42	=42	=42	=42
*	*head:regular	*head:x	*	*	*	*
8CC#	4re	16Ree/	4r	1ryy	4r	G t
.	.	16ree	.	.	.	.
.	.	.	.	.	.	.
8r	.	8ree	.	.	.	.
.	.	.	.	.	.	.
.	.	.	.	.	.	.
4GGG	4re	16Ree/	4r	.	4r	.
.	.	16ree	.	.	.	.
.	.	.	.	.	.	.
.	.	8ree	.	.	.	.
.	.	.	.	.	.	.
.	.	.	.	.	.	.
4FFF#	4re	16Ree/	4E A#	.	4c f#	.
.	.	16ree	.	.	.	.
.	.	.	.	.	.	.
.	.	8ree	.	.	.	.
.	.	.	.	.	.	.
.	.	.	.	.	.	.
6CC#	4re	16Ree/	4r	.	4r	.
.	.	16ree	.	.	.	.
.	.	.	.	.	.	.
.	.	8ree	.	.	.	.
12r	.	.	.	.	.	.
.	.	.	.	.	.	.
=43	=43	=43	=43	=43	=43	=43
*	*head:regular	*head:x	*	*	*	*
4CC	4re	16Ree/	4A	1ryy	4e g dd	F e
.	.	16ree	.	.	.	.
.	.	.	.	.	.	.
.	.	8ree	.	.	.	.
.	.	.	.	.	.	.
.	.	.	.	.	.	.
4FF	4re	16Ree/	4r	.	4r	.
.	.	16ree	.	.	.	.
.	.	.	.	.	.	.
.	.	8ree	.	.	.	.
.	.	.	.	.	.	.
.	.	.	.	.	.	.
4AAA	16Rf\	16Ree/	6A	.	6e g dd	.
.	16re	16ree	.	.	.	.
.	.	.	.	.	.	.
.	8re	8ree	.	.	.	.
.	.	.	12r	.	12r	.
.	.	.	.	.	.	.
4CC	4re	16Ree/	4r	.	4r	.
.	.	16ree	.	.	.	.
.	.	.	.	.	.	.
.	.	8ree	.	.	.	.
.	.	.	.	.	.	.
.	.	.	.	.	.	.
=44	=44	=44	=44	=44	=44	=44
*	*head:regular	*head:x	*	*	*	*
4AAA#	4re	16Ree/	6D G A#	1ryy	6e	E W
.	.	16ree	.	.	.	.
.	.	.	.	.	.	.
.	.	8ree	.	.	.	.
.	.	.	12r	.	12r	.
.	.	.	.	.	.	.
4GGG	4re	16Ree/	4r	.	4r	.
.	.	16ree	.	.	.	.
.	.	.	.	.	.	.
.	.	8ree	.	.	.	.
.	.	.	.	.	.	.
.	.	.	.	.	.	.
4EE	16Rf\	16Ree/	4r	.	4r	A S
.	16re	16ree	.	.	.	.
.	.	.	.	.	.	.
.	8re	8ree	.	.	.	.
.	.	.	.	.	.	.
.	.	.	.	.	.	.
4AAA#	4re	16Ree/	4r	.	4r	.
.	.	16ree	.	.	.	.
.	.	.	.	.	.	.
.	.	8ree	.	.	.	.
.	.	.	.	.	.	.
.	.	.	.	.	.	.
=45	=45	=45	=45	=45	=45	=45
*	*head:regular	*head:x	*	*	*	*
4AAA	12Rf\	12Ree/	4C G B	1ryy	4d a dd	A i
.	.	.	.	.	.	.
.	12re	12ree	.	.	.	.
.	.	.	.	.	.	.
.	12re	12ree	.	.	.	.
.	.	.	.	.	.	.
4CC	4re	12Ree/	4r	.	4r	.
.	.	.	.	.	.	.
.	.	12ree	.	.	.	.
.	.	.	.	.	.	.
.	.	12ree	.	.	.	.
.	.	.	.	.	.	.
6CC	4re	12Ree/	4r	.	4c g b dd	.
.	.	.	.	.	.	.
.	.	12ree	.	.	.	.
.	.	.	.	.	.	.
12r	.	12ree	.	.	.	.
.	.	.	.	.	.	.
4AAA#	12Rf\	16Ree/	4r	.	4r	.
.	.	16ree	.	.	.	.
.	12re	.	.	.	.	.
.	.	8ree	.	.	.	.
.	12re	.	.	.	.	.
.	.	.	.	.	.	.
=46	=46	=46	=46	=46	=46	=46
*	*head:regular	*head:x	*	*	*	*
4AAA	4re	12Ree/	4r	1ryy	4r	D U
.	.	.	.	.	.	.
.	.	12ree	.	.	.	.
.	.	.	.	.	.	.
.	.	12ree	.	.	.	.
.	.	.	.	.	.	.
4CC	4re	12Ree/	4r	.	4r	.
.	.	.	.	.	.	.
.	.	12ree	.	.	.	.
.	.	.	.	.	.	.
.	.	12ree	.	.	.	.
.	.	.	.	.	.	.
4DD	4re	12Ree/	4r	.	6c f# b ee	.
.	.	.	.	.	.	.
.	.	12ree	.	.	.	.
.	.	.	.	.	.	.
.	.	12ree	.	.	12r	.
.	.	.	.	.	.	.
8.EE	4re	12Ree/	4r	.	4r	.
.	.	.	.	.	.	.
.	.	12ree	.	.	.	.
.	.	.	.	.	.	.
.	.	12ree	.	.	.	.
16r	.	.	.	.	.	.
=47	=47	=47	=47	=47	=47	=47
*	*head:regular	*head:x	*	*	*	*
8FF	4re	12Ree/	4r	1ryy	4r	D h
.	.	.	.	.	.	.
.	.	12ree	.	.	.	.
8r	.	.	.	.	.	.
.	.	12ree	.	.	.	.
.	.	.	.	.	.	.
8.AA	4re	12Ree/	4r	.	4r	.
.	.	.	.	.	.	.
.	.	12ree	.	.	.	.
.	.	.	.	.	.	.
.	.	12ree	.	.	.	.
16r	.	.	.	.	.	.
4DD	4re	12Ree/	4F	.	4c e a dd aa	.
.	.	.	.	.	.	.
.	.	12ree	.	.	.	.
.	.	.	.	.	.	.
.	.	12ree	.	.	.	.
.	.	.	.	.	.	.
4CC#	12Rf\	16Ree/	4r	.	4r	.
.	.	16ree	.	.	.	.
.	12re	.	.	.	.	.
.	.	8ree	.	.	.	.
.	12re	.	.	.	.	.
.	.	.	.	.	.	.
=48	=48	=48	=48	=48	=48	=48
*	*head:regular	*head:x	*	*	*	*
4DD	4re	12Ree/	4F B	1ryy	4g dd gg	G 7
.	.	.	.	.	.	.
.	.	12ree	.	.	.	.
.	.	.	.	.	.	.
.	.	12ree	.	.	.	.
.	.	.	.	.	.	.
4GGG	4re	12Ree/	4r	.	4r	.
.	.	.	.	.	.	.
.	.	12ree	.	.	.	.
.	.	.	.	.	.	.
.	.	12ree	.	.	.	.
.	.	.	.	.	.	.
8GGG	4re	16Ree/	4F B	.	4d g	.
.	.	16ree	.	.	.	.
.	.	.	.	.	.	.
8r	.	8ree	.	.	.	.
.	.	.	.	.	.	.
.	.	.	.	.	.	.
8DD	16Rf\	16Ree/	4r	.	4r	.
.	16re	16ree	.	.	.	.
.	.	.	.	.	.	.
8r	8re	8ree	.	.	.	.
.	.	.	.	.	.	.
.	.	.	.	.	.	.
=49	=49	=49	=49	=49	=49	=49
*	*head:regular	*head:x	*	*	*	*
6GGG	4re	4ree	4r	1ryy	4r	G h
.	.	.	.	.	.	.
.	.	.	.	.	.	.
.	.	.	.	.	.	.
12r	.	.	.	.	.	.
.	.	.	.	.	.	.
8.FF	4re	16Ree/	4r	.	4r	.
.	.	16ree	.	.	.	.
.	.	.	.	.	.	.
.	.	8ree	.	.	.	.
.	.	.	.	.	.	.
16r	.	.	.	.	.	.
4GG	4re	4ree	4r	.	4r	.
.	.	.	.	.	.	.
.	.	.	.	.	.	.
.	.	.	.	.	.	.
.	.	.	.	.	.	.
.	.	.	.	.	.	.
4AA	4re	16Ree/	4r	.	4r	.
.	.	16ree	.	.	.	.
.	.	.	.	.	.	.
.	.	8ree	.	.	.	.
.	.	.	.	.	.	.
.	.	.	.	.	.	.
=50	=50	=50	=50	=50	=50	=50
*	*head:regular	*head:x	*	*	*	*
8AA#	16Rf\	4ree	4r	1ryy	4r	F+ U
.	16re	.	.	.	.	.
.	.	.	.	.	.	.
8r	8re	.	.	.	.	.
.	.	.	.	.	.	.
.	.	.	.	.	.	.
4GG#	4re	16Ree/	4r	.	4r	.
.	.	16ree	.	.	.	.
.	.	.	.	.	.	.
.	.	8ree	.	.	.	.
.	.	.	.	.	.	.
.	.	.	.	.	.	.
4FF#	4re	4ree	6E A#	.	6d# g#	.
.	.	.	.	.	.	.
.	.	.	.	.	.	.
.	.	.	.	.	.	.
.	.	.	12r	.	12r	.
.	.	.	.	.	.	.
6AA#	4re	16Ree/	4r	.	4r	.
.	.	16ree	.	.	.	.
.	.	.	.	.	.	.
.	.	8ree	.	.	.	.
12r	.	.	.	.	.	.
.	.	.	.	.	.	.
=51	=51	=51	=51	=51	=51	=51
*	*head:regular	*head:x	*	*	*	*
4CC	16Rcc\	4ree	4r	1ryy	4r	F e
.	16re	.	.	.	.	.
.	.	.	.	.	.	.
.	8re	.	.	.	.	.
.	.	.	.	.	.	.
.	.	.	.	.	.	.
4FF	4re	16Ree/	4r	.	4r	.
.	.	16ree	.	.	.	.
.	.	.	.	.	.	.
.	.	8ree	.	.	.	.
.	.	.	.	.	.	.
.	.	.	.	.	.	.
4FFF	4re	4ree	4r	.	4r	.
.	.	.	.	.	.	.
.	.	.	.	.	.	.
.	.	.	.	.	.	.
.	.	.	.	.	.	.
.	.	.	.	.	.	.
4CC	4re	16Ree/	4r	.	4r	.
.	.	16ree	.	.	.	.
.	.	.	.	.	.	.
.	.	8ree	.	.	.	.
.	.	.	.	.	.	.
.	.	.	.	.	.	.
=52	=52	=52	=52	=52	=52	=52
*	*head:regular	*head:x	*	*	*	*
4DD	4re	4ree	6G#	1ryy	6d f cc ff ccc	B 9
.	.	.	.	.	.	.
.	.	.	.	.	.	.
.	.	.	.	.	.	.
.	.	.	12r	.	12r	.
.	.	.	.	.	.	.
4FF	4re	16Ree/	4D G#	.	4c f	.
.	.	16ree	.	.	.	.
.	.	.	.	.	.	.
.	.	8ree	.	.	.	.
.	.	.	.	.	.	.
.	.	.	.	.	.	.
4FFF	4re	4ree	4r	.	4r	.
.	.	.	.	.	.	.
.	.	.	.	.	.	.
.	.	.	.	.	.	.
.	.	.	.	.	.	.
.	.	.	.	.	.	.
4DD	4re	16Ree/	4r	.	4r	.
.	.	16ree	.	.	.	.
.	.	.	.	.	.	.
.	.	8ree	.	.	.	.
.	.	.	.	.	.	.
.	.	.	.	.	.	.
=53	=53	=53	=53	=53	=53	=53
*	*head:regular	*head:x	*	*	*	*
4BBB	12Rf\	4ree	4D G A	1ryy	4f#	E i
.	.	.	.	.	.	.
.	12re	.	.	.	.	.
.	.	.	.	.	.	.
.	12re	.	.	.	.	.
.	.	.	.	.	.	.
4DD	4re	16Ree/	4r	.	4r	.
.	.	16ree	.	.	.	.
.	.	.	.	.	.	.
.	.	8ree	.	.	.	.
.	.	.	.	.	.	.
.	.	.	.	.	.	.
4EE	4re	4ree	4r	.	4r	.
.	.	.	.	.	.	.
.	.	.	.	.	.	.
.	.	.	.	.	.	.
.	.	.	.	.	.	.
.	.	.	.	.	.	.
6DD	4re	16Ree/	4r	.	4r	.
.	.	16ree	.	.	.	.
.	.	.	.	.	.	.
.	.	8ree	.	.	.	.
12r	.	.	.	.	.	.
.	.	.	.	.	.	.
=54	=54	=54	=54	=54	=54	=54
*	*head:regular	*head:x	*	*	*	*
4AAA	4re	4ree	6G	1ryy	6c# f# b	A U
.	.	.	.	.	.	.
.	.	.	.	.	.	.
.	.	.	.	.	.	.
.	.	.	12r	.	12r	.
.	.	.	.	.	.	.
4CC	4re	16Ree/	4r	.	4r	.
.	.	16ree	.	.	.	.
.	.	.	.	.	.	.
.	.	8ree	.	.	.	.
.	.	.	.	.	.	.
.	.	.	.	.	.	.
4CC#	4re	4ree	6C# G B	.	6f#	.
.	.	.	.	.	.	.
.	.	.	.	.	.	.
.	.	.	.	.	.	.
.	.	.	12r	.	12r	.
.	.	.	.	.	.	.
8.AAA	4re	16Ree/	4r	.	4r	.
.	.	16ree	.	.	.	.
.	.	.	.	.	.	.
.	.	8ree	.	.	.	.
.	.	.	.	.	.	.
16r	.	.	.	.	.	.
=55	=55	=55	=55	=55	=55	=55
*	*head:regular	*head:x	*	*	*	*
8.FFF#	4re	4ree	4r	1ryy	4r	D U
.	.	.	.	.	.	.
.	.	.	.	.	.	.
.	.	.	.	.	.	.
.	.	.	.	.	.	.
16r	.	.	.	.	.	.
4DD	4re	16Ree/	4r	.	4r	.
.	.	16ree	.	.	.	.
.	.	.	.	.	.	.
.	.	8ree	.	.	.	.
.	.	.	.	.	.	.
.	.	.	.	.	.	.
8DD	4re	4ree	4F#	.	4c e b	.
.	.	.	.	.	.	.
.	.	.	.	.	.	.
8r	.	.	.	.	.	.
.	.	.	.	.	.	.
.	.	.	.	.	.	.
4EE	4re	16Ree/	4r	.	4r	.
.	.	16ree	.	.	.	.
.	.	.	.	.	.	.
.	.	8ree	.	.	.	.
.	.	.	.	.	.	.
.	.	.	.	.	.	.
=56	=56	=56	=56	=56	=56	=56
*	*head:regular	*head:x	*	*	*	*
4GG	4re	4ree	4F B	1ryy	4d# g dd gg	G q
.	.	.	.	.	.	.
.	.	.	.	.	.	.
.	.	.	.	.	.	.
.	.	.	.	.	.	.
.	.	.	.	.	.	.
4DD#	4re	16Ree/	4r	.	4r	.
.	.	16ree	.	.	.	.
.	.	.	.	.	.	.
.	.	8ree	.	.	.	.
.	.	.	.	.	.	.
.	.	.	.	.	.	.
8BBB	4re	4ree	4F B	.	4d# g	.
.	.	.	.	.	.	.
.	.	.	.	.	.	.
8r	.	.	.	.	.	.
.	.	.	.	.	.	.
.	.	.	.	.	.	.
8GGG	16Rf\	16Ree/	4r	.	4r	.
.	16re	16ree	.	.	.	.
.	.	.	.	.	.	.
8r	8re	8ree	.	.	.	.
.	.	.	.	.	.	.
.	.	.	.	.	.	.
=57	=57	=57	=57	=57	=57	=57
*	*head:regular	*head:x	*	*	*	*
4CC	4re	4ree	4r	1ryy	4r	C e
.	.	.	.	.	.	.
.	.	.	.	.	.	.
.	.	.	.	.	.	.
.	.	.	.	.	.	.
.	.	.	.	.	.	.
4GGG	4re	16Ree/	4r	.	4r	.
.	.	16ree	.	.	.	.
.	.	.	.	.	.	.
.	.	8ree	.	.	.	.
.	.	.	.	.	.	.
.	.	.	.	.	.	.
4GGG	4re	16Ree/	4E A	.	4d g b gg	.
.	.	16ree	.	.	.	.
.	.	.	.	.	.	.
.	.	8ree	.	.	.	.
.	.	.	.	.	.	.
.	.	.	.	.	.	.
6CC	4re	16Ree/	4r	.	4r	.
.	.	16ree	.	.	.	.
.	.	.	.	.	.	.
.	.	8ree	.	.	.	.
12r	.	.	.	.	.	.
.	.	.	.	.	.	.
=58	=58	=58	=58	=58	=58	=58
*	*head:regular	*head:x	*	*	*	*
4AAA#	16Rf\	16Ree/	4E A#	1ryy	4c# f# cc ff#	G t
.	16re	16ree	.	.	.	.
.	.	.	.	.	.	.
.	8re	8ree	.	.	.	.
.	.	.	.	.	.	.
.	.	.	.	.	.	.
4CC#	4re	16Ree/	4r	.	4r	.
.	.	16ree	.	.	.	.
.	.	.	.	.	.	.
.	.	8ree	.	.	.	.
.	.	.	.	.	.	.
.	.	.	.	.	.	.
4FF#	4re	16Ree/	4r	.	4r	.
.	.	16ree	.	.	.	.
.	.	.	.	.	.	.
.	.	8ree	.	.	.	.
.	.	.	.	.	.	.
.	.	.	.	.	.	.
8.CC#	16Rf\	16Ree/	4r	.	4r	.
.	16re	16ree	.	.	.	.
.	.	.	.	.	.	.
.	8re	8ree	.	.	.	.
.	.	.	.	.	.	.
16r	.	.	.	.	.	.
=59	=59	=59	=59	=59	=59	=59
*	*head:regular	*head:x	*	*	*	*
8.C	16Rf\	16Ree/	4E A	1ryy	4d g	F e
.	16re	16ree	.	.	.	.
.	.	.	.	.	.	.
.	8re	8ree	.	.	.	.
.	.	.	.	.	.	.
16r	.	.	.	.	.	.
4FF#	4re	16Ree/	4r	.	4r	.
.	.	16ree	.	.	.	.
.	.	.	.	.	.	.
.	.	8ree	.	.	.	.
.	.	.	.	.	.	.
.	.	.	.	.	.	.
8FF	4re	16Ree/	4E A	.	4d g	.
.	.	16ree	.	.	.	.
.	.	.	.	.	.	.
8r	.	8ree	.	.	.	.
.	.	.	.	.	.	.
.	.	.	.	.	.	.
4CC	4re	16Ree/	4A	.	4e g dd	.
.	.	16ree	.	.	.	.
.	.	.	.	.	.	.
.	.	8ree	.	.	.	.
.	.	.	.	.	.	.
.	.	.	.	.	.	.
=60	=60	=60	=60	=60	=60	=60
*	*head:regular	*head:x	*	*	*	*
4AAA#	4re	16Ree/	6G	1ryy	6d e a#	E W
.	.	16ree	.	.	.	.
.	.	.	.	.	.	.
.	.	8ree	.	.	.	.
.	.	.	12r	.	12r	.
.	.	.	.	.	.	.
4EEE	4re	16Ree/	4r	.	4r	.
.	.	16ree	.	.	.	.
.	.	.	.	.	.	.
.	.	8ree	.	.	.	.
.	.	.	.	.	.	.
.	.	.	.	.	.	.
4EEE	4re	16Ree/	4r	.	4r	A S
.	.	16ree	.	.	.	.
.	.	.	.	.	.	.
.	.	8ree	.	.	.	.
.	.	.	.	.	.	.
.	.	.	.	.	.	.
4CC#	4re	16Ree/	4r	.	4r	.
.	.	16ree	.	.	.	.
.	.	.	.	.	.	.
.	.	8ree	.	.	.	.
.	.	.	.	.	.	.
.	.	.	.	.	.	.
=61	=61	=61	=61	=61	=61	=61
*	*head:regular	*head:x	*	*	*	*
4DD	16Rf\	16Ree/	4r	1ryy	4r	D h
.	16re	16ree	.	.	.	.
.	.	.	.	.	.	.
.	8re	8ree	.	.	.	.
.	.	.	.	.	.	.
.	.	.	.	.	.	.
8.AAA	4re	16Ree/	4r	.	4r	.
.	.	16ree	.	.	.	.
.	.	.	.	.	.	.
.	.	8ree	.	.	.	.
.	.	.	.	.	.	.
16r	.	.	.	.	.	.
6FFF	4re	16Ree/	4F	.	4c e a dd aa	.
.	.	16ree	.	.	.	.
.	.	.	.	.	.	.
.	.	8ree	.	.	.	.
12r	.	.	.	.	.	.
.	.	.	.	.	.	.
4DD	4re	16Ree/	4r	.	4r	.
.	.	16ree	.	.	.	.
.	.	.	.	.	.	.
.	.	8ree	.	.	.	.
.	.	.	.	.	.	.
.	.	.	.	.	.	.
=62	=62	=62	=62	=62	=62	=62
*	*head:regular	*head:x	*	*	*	*
4CC#	16Rf\	16Ree/	4r	1ryy	4r	C+ q
.	16re	16ree	.	.	.	.
.	.	.	.	.	.	.
.	8re	8ree	.	.	.	.
.	.	.	.	.	.	.
.	.	.	.	.	.	.
4FF	4re	16Ree/	4r	.	4r	.
.	.	16ree	.	.	.	.
.	.	.	.	.	.	.
.	.	8ree	.	.	.	.
.	.	.	.	.	.	.
.	.	.	.	.	.	.
4FF	4re	16Ree/	6F B	.	6c# a	.
.	.	16ree	.	.	.	.
.	.	.	.	.	.	.
.	.	8ree	.	.	.	.
.	.	.	12r	.	12r	.
.	.	.	.	.	.	.
8.GGG#	16Rf\	16Ree/	4r	.	4r	.
.	16re	16ree	.	.	.	.
.	.	.	.	.	.	.
.	8re	8ree	.	.	.	.
.	.	.	.	.	.	.
16r	.	.	.	.	.	.
=63	=63	=63	=63	=63	=63	=63
*	*head:regular	*head:x	*	*	*	*
8GGG	16Rf\	16Ree/	4r	1ryy	4r	C 6
.	16re	16ree	.	.	.	.
.	.	.	.	.	.	.
8r	8re	8ree	.	.	.	.
.	.	.	.	.	.	.
.	.	.	.	.	.	.
4CC	4re	16Ree/	4r	.	4r	.
.	.	16ree	.	.	.	.
.	.	.	.	.	.	.
.	.	8ree	.	.	.	.
.	.	.	.	.	.	.
.	.	.	.	.	.	.
4BBB	4re	16Ree/	4F B	.	4d g	G 7
.	.	16ree	.	.	.	.
.	.	.	.	.	.	.
.	.	8ree	.	.	.	.
.	.	.	.	.	.	.
.	.	.	.	.	.	.
4DD	4re	16Ree/	4r	.	4r	.
.	.	16ree	.	.	.	.
.	.	.	.	.	.	.
.	.	8ree	.	.	.	.
.	.	.	.	.	.	.
.	.	.	.	.	.	.
=64	=64	=64	=64	=64	=64	=64
*	*head:regular	*head:x	*	*	*	*
4EEE	4re	16Ree/	4r	1ryy	4r	C 6
.	.	16ree	.	.	.	.
.	.	.	.	.	.	.
.	.	8ree	.	.	.	.
.	.	.	.	.	.	.
.	.	.	.	.	.	.
4AAA	4re	16Ree/	4r	.	4r	.
.	.	16ree	.	.	.	.
.	.	.	.	.	.	.
.	.	8ree	.	.	.	.
.	.	.	.	.	.	.
.	.	.	.	.	.	.
8DD	4re	16Ree/	4F B	.	4d g	G 7
.	.	16ree	.	.	.	.
.	.	.	.	.	.	.
8r	.	8ree	.	.	.	.
.	.	.	.	.	.	.
.	.	.	.	.	.	.
8GGG	4re	16Ree/	4r	.	4r	.
.	.	16ree	.	.	.	.
.	.	.	.	.	.	.
8r	.	8ree	.	.	.	.
.	.	.	.	.	.	.
.	.	.	.	.	.	.
=65	=65	=65	=65	=65	=65	=65
*	*head:regular	*head:x	*	*	*	*
6CC	4re	4ree	4r	1ryy	4r	C d
.	.	.	.	.	.	.
.	.	.	.	.	.	.
.	.	.	.	.	.	.
12r	.	.	.	.	.	.
.	.	.	.	.	.	.
4EE	4re	12Ree/	4r	.	4r	.
.	.	.	.	.	.	.
.	.	12ree	.	.	.	.
.	.	.	.	.	.	.
.	.	12ree	.	.	.	.
.	.	.	.	.	.	.
4CC	4re	12Ree/	4r	.	4r	.
.	.	.	.	.	.	.
.	.	12ree	.	.	.	.
.	.	.	.	.	.	.
.	.	12ree	.	.	.	.
.	.	.	.	.	.	.
4CC#	4re	16Ree/	4r	.	4r	.
.	.	16ree	.	.	.	.
.	.	.	.	.	.	.
.	.	8ree	.	.	.	.
.	.	.	.	.	.	.
.	.	.	.	.	.	.
=66	=66	=66	=66	=66	=66	=66
*	*head:regular	*head:x	*	*	*	*
4CC#	4re	12Ree/	4r	1ryy	4r	G t
.	.	.	.	.	.	.
.	.	12ree	.	.	.	.
.	.	.	.	.	.	.
.	.	12ree	.	.	.	.
.	.	.	.	.	.	.
4FFF#	4re	12Ree/	4r	.	4r	.
.	.	.	.	.	.	.
.	.	12ree	.	.	.	.
.	.	.	.	.	.	.
.	.	12ree	.	.	.	.
.	.	.	.	.	.	.
4FFF#	4re	12Ree/	6E A#	.	6c f#	.
.	.	.	.	.	.	.
.	.	12ree	.	.	.	.
.	.	.	.	.	.	.
.	.	12ree	12r	.	12r	.
.	.	.	.	.	.	.
4CC#	4re	16Ree/	4r	.	4r	.
.	.	16ree	.	.	.	.
.	.	.	.	.	.	.
.	.	8ree	.	.	.	.
.	.	.	.	.	.	.
.	.	.	.	.	.	.
=67	=67	=67	=67	=67	=67	=67
*	*head:regular	*head:x	*	*	*	*
4CC	4re	12Ree/	4r	1ryy	4r	F d
.	.	.	.	.	.	.
.	.	12ree	.	.	.	.
.	.	.	.	.	.	.
.	.	12ree	.	.	.	.
.	.	.	.	.	.	.
6FFF	4re	12Ree/	4r	.	4r	.
.	.	.	.	.	.	.
.	.	12ree	.	.	.	.
.	.	.	.	.	.	.
12r	.	12ree	.	.	.	.
.	.	.	.	.	.	.
4AA	4re	12Ree/	4r	.	4r	.
.	.	.	.	.	.	.
.	.	12ree	.	.	.	.
.	.	.	.	.	.	.
.	.	12ree	.	.	.	.
.	.	.	.	.	.	.
4AA	4re	16Ree/	4r	.	4r	.
.	.	16ree	.	.	.	.
.	.	.	.	.	.	.
.	.	8ree	.	.	.	.
.	.	.	.	.	.	.
.	.	.	.	.	.	.
=68	=68	=68	=68	=68	=68	=68
*	*head:regular	*head:x	*	*	*	*
4AA#	4re	16Ree/	6D G A#	1ryy	6e	E W
.	.	16ree	.	.	.	.
.	.	.	.	.	.	.
.	.	8ree	.	.	.	.
.	.	.	12r	.	12r	.
.	.	.	.	.	.	.
4E	12Rf\	16Ree/	12D G A#	.	12e	.
.	.	16ree	.	.	.	.
.	12re	.	12r	.	12r	.
.	.	8ree	.	.	.	.
.	12re	.	12r	.	12r	.
.	.	.	.	.	.	.
4AA	4re	4ree	4r	.	4r	A S
.	.	.	.	.	.	.
.	.	.	.	.	.	.
.	.	.	.	.	.	.
.	.	.	.	.	.	.
.	.	.	.	.	.	.
4CC#	4re	16Ree/	4r	.	4r	.
.	.	16ree	.	.	.	.
.	.	.	.	.	.	.
.	.	8ree	.	.	.	.
.	.	.	.	.	.	.
.	.	.	.	.	.	.
=69	=69	=69	=69	=69	=69	=69
*	*head:regular	*head:x	*	*	*	*
4CC	4re	16Ree/	4G	1ryy	4c e a	A b
.	.	16ree	.	.	.	.
.	.	.	.	.	.	.
.	.	8ree	.	.	.	.
.	.	.	.	.	.	.
.	.	.	.	.	.	.
4EE	4re	16Ree/	4r	.	4r	.
.	.	16ree	.	.	.	.
.	.	.	.	.	.	.
.	.	8ree	.	.	.	.
.	.	.	.	.	.	.
.	.	.	.	.	.	.
4EEE	4re	16Ree/	4r	.	4c g a ee	.
.	.	16ree	.	.	.	.
.	.	.	.	.	.	.
.	.	8ree	.	.	.	.
.	.	.	.	.	.	.
.	.	.	.	.	.	.
6AAA	4re	16Ree/	4r	.	4r	.
.	.	16ree	.	.	.	.
.	.	.	.	.	.	.
.	.	8ree	.	.	.	.
12r	.	.	.	.	.	.
.	.	.	.	.	.	.
=70	=70	=70	=70	=70	=70	=70
*	*head:regular	*head:x	*	*	*	*
4DD	4re	16Ree/	4r	1ryy	4r	D 7
.	.	16ree	.	.	.	.
.	.	.	.	.	.	.
.	.	8ree	.	.	.	.
.	.	.	.	.	.	.
.	.	.	.	.	.	.
4FF#	4re	16Ree/	4r	.	4r	.
.	.	16ree	.	.	.	.
.	.	.	.	.	.	.
.	.	8ree	.	.	.	.
.	.	.	.	.	.	.
.	.	.	.	.	.	.
4FFF#	4re	16Ree/	4F#	.	4c d a	.
.	.	16ree	.	.	.	.
.	.	.	.	.	.	.
.	.	8ree	.	.	.	.
.	.	.	.	.	.	.
.	.	.	.	.	.	.
8AAA	4re	16Ree/	4r	.	4r	.
.	.	16ree	.	.	.	.
.	.	.	.	.	.	.
8r	.	8ree	.	.	.	.
.	.	.	.	.	.	.
.	.	.	.	.	.	.
=71	=71	=71	=71	=71	=71	=71
*	*head:regular	*head:x	*	*	*	*
8.DD	4re	16Ree/	4F	1ryy	4c e g	D i
.	.	16ree	.	.	.	.
.	.	.	.	.	.	.
.	.	8ree	.	.	.	.
.	.	.	.	.	.	.
16r	.	.	.	.	.	.
4FF	16Rcc\	16Ree/	4r	.	4r	.
.	16re	16ree	.	.	.	.
.	.	.	.	.	.	.
.	8re	8ree	.	.	.	.
.	.	.	.	.	.	.
.	.	.	.	.	.	.
4FF	4re	16Ree/	6F	.	6c e g	.
.	.	16ree	.	.	.	.
.	.	.	.	.	.	.
.	.	8ree	.	.	.	.
.	.	.	12r	.	12r	.
.	.	.	.	.	.	.
4AA	4re	16Ree/	4r	.	4r	.
.	.	16ree	.	.	.	.
.	.	.	.	.	.	.
.	.	8ree	.	.	.	.
.	.	.	.	.	.	.
.	.	.	.	.	.	.
=72	=72	=72	=72	=72	=72	=72
*	*head:regular	*head:x	*	*	*	*
4GGG#	4re	16Ree/	6F B	1ryy	6d# g a	C+ l
.	.	16ree	.	.	.	.
.	.	.	.	.	.	.
.	.	8ree	.	.	.	.
.	.	.	12r	.	12r	.
.	.	.	.	.	.	.
4FFF	4re	16Ree/	4r	.	4r	.
.	.	16ree	.	.	.	.
.	.	.	.	.	.	.
.	.	8ree	.	.	.	.
.	.	.	.	.	.	.
.	.	.	.	.	.	.
8CC#	4re	4ree	4F B	.	4d# g a	.
.	.	.	.	.	.	.
.	.	.	.	.	.	.
8r	.	.	.	.	.	.
.	.	.	.	.	.	.
.	.	.	.	.	.	.
8FF	16Rf\	16Ree/	4r	.	4r	.
.	16re	16ree	.	.	.	.
.	.	.	.	.	.	.
8r	8re	8ree	.	.	.	.
.	.	.	.	.	.	.
.	.	.	.	.	.	.
=73	=73	=73	=73	=73	=73	=73
*	*head:regular	*head:x	*	*	*	*
4CC	4re	4ree	4r	1ryy	4r	C e
.	.	.	.	.	.	.
.	.	.	.	.	.	.
.	.	.	.	.	.	.
.	.	.	.	.	.	.
.	.	.	.	.	.	.
4GGG	4re	12Ree/	4r	.	4r	.
.	.	.	.	.	.	.
.	.	12ree	.	.	.	.
.	.	.	.	.	.	.
.	.	12ree	.	.	.	.
.	.	.	.	.	.	.
4CC	4re	12Ree/	6E B	.	6d a	.
.	.	.	.	.	.	.
.	.	12ree	.	.	.	.
.	.	.	.	.	.	.
.	.	12ree	12r	.	12r	.
.	.	.	.	.	.	.
4GGG	4re	12Ree/	4r	.	4r	.
.	.	.	.	.	.	.
.	.	12ree	.	.	.	.
.	.	.	.	.	.	.
.	.	12ree	.	.	.	.
.	.	.	.	.	.	.
=74	=74	=74	=74	=74	=74	=74
*	*head:regular	*head:x	*	*	*	*
4FF#	4re	16Ree/	4r	1ryy	4r	G t
.	.	16ree	.	.	.	.
.	.	.	.	.	.	.
.	.	8ree	.	.	.	.
.	.	.	.	.	.	.
.	.	.	.	.	.	.
4CC#	4re	16Ree/	4E A#	.	4c f#	.
.	.	16ree	.	.	.	.
.	.	.	.	.	.	.
.	.	8ree	.	.	.	.
.	.	.	.	.	.	.
.	.	.	.	.	.	.
4CC#	4re	12Ree/	4r	.	4r	.
.	.	.	.	.	.	.
.	.	12ree	.	.	.	.
.	.	.	.	.	.	.
.	.	12ree	.	.	.	.
.	.	.	.	.	.	.
4AAA#	4re	12Ree/	4r	.	4r	.
.	.	.	.	.	.	.
.	.	12ree	.	.	.	.
.	.	.	.	.	.	.
.	.	12ree	.	.	.	.
.	.	.	.	.	.	.
=75	=75	=75	=75	=75	=75	=75
*	*head:regular	*head:x	*	*	*	*
4CC	12Rf\	12Ree/	4E A	1ryy	4c g	F d
.	.	.	.	.	.	.
.	12re	12ree	.	.	.	.
.	.	.	.	.	.	.
.	12re	12ree	.	.	.	.
.	.	.	.	.	.	.
4FFF	4re	12Ree/	4r	.	4r	.
.	.	.	.	.	.	.
.	.	12ree	.	.	.	.
.	.	.	.	.	.	.
.	.	12ree	.	.	.	.
.	.	.	.	.	.	.
4FFF	4re	4ree	4r	.	4r	.
.	.	.	.	.	.	.
.	.	.	.	.	.	.
.	.	.	.	.	.	.
.	.	.	.	.	.	.
.	.	.	.	.	.	.
4GGG	4re	12Ree/	4r	.	4r	.
.	.	.	.	.	.	.
.	.	12ree	.	.	.	.
.	.	.	.	.	.	.
.	.	12ree	.	.	.	.
.	.	.	.	.	.	.
=76	=76	=76	=76	=76	=76	=76
*	*head:regular	*head:x	*	*	*	*
4AAA#	4re	12Ree/	4r	1ryy	4r	E W
.	.	.	.	.	.	.
.	.	12ree	.	.	.	.
.	.	.	.	.	.	.
.	.	12ree	.	.	.	.
.	.	.	.	.	.	.
4EE	4re	12Ree/	4r	.	4r	.
.	.	.	.	.	.	.
.	.	12ree	.	.	.	.
.	.	.	.	.	.	.
.	.	12ree	.	.	.	.
.	.	.	.	.	.	.
4EE	4re	12Ree/	4r	.	4r	A S
.	.	.	.	.	.	.
.	.	12ree	.	.	.	.
.	.	.	.	.	.	.
.	.	12ree	.	.	.	.
.	.	.	.	.	.	.
4AA#	4re	12Ree/	12G	.	12c# e a#	.
.	.	.	.	.	.	.
.	.	12ree	12r	.	12r	.
.	.	.	.	.	.	.
.	.	12ree	12r	.	12r	.
.	.	.	.	.	.	.
=77	=77	=77	=77	=77	=77	=77
*	*head:regular	*head:x	*	*	*	*
4C	4re	16Ree/	4r	1ryy	4r	A i
.	.	16ree	.	.	.	.
.	.	.	.	.	.	.
.	.	8ree	.	.	.	.
.	.	.	.	.	.	.
.	.	.	.	.	.	.
4AA#	4re	16Ree/	4r	.	4r	.
.	.	16ree	.	.	.	.
.	.	.	.	.	.	.
.	.	8ree	.	.	.	.
.	.	.	.	.	.	.
.	.	.	.	.	.	.
6AA	16Rf\	16Ree/	4r	.	4r	.
.	16re	16ree	.	.	.	.
.	.	.	.	.	.	.
.	8re	8ree	.	.	.	.
12r	.	.	.	.	.	.
.	.	.	.	.	.	.
4E	4re	16Ree/	4r	.	4r	.
.	.	16ree	.	.	.	.
.	.	.	.	.	.	.
.	.	8ree	.	.	.	.
.	.	.	.	.	.	.
.	.	.	.	.	.	.
=78	=78	=78	=78	=78	=78	=78
*	*head:regular	*head:x	*	*	*	*
4DD	16Rf\	16Ree/	4r	1ryy	4r	D 7
.	16re	16ree	.	.	.	.
.	.	.	.	.	.	.
.	8re	8ree	.	.	.	.
.	.	.	.	.	.	.
.	.	.	.	.	.	.
4AAA	4re	16Ree/	12F#	.	12c d a	.
.	.	16ree	.	.	.	.
.	.	.	12r	.	12r	.
.	.	8ree	.	.	.	.
.	.	.	12r	.	12r	.
.	.	.	.	.	.	.
4FFF#	4re	16Ree/	4F#	.	4c d a	.
.	.	16ree	.	.	.	.
.	.	.	.	.	.	.
.	.	8ree	.	.	.	.
.	.	.	.	.	.	.
.	.	.	.	.	.	.
8.DD	16Rf\	16Ree/	4r	.	4r	.
.	16re	16ree	.	.	.	.
.	.	.	.	.	.	.
.	8re	8ree	.	.	.	.
.	.	.	.	.	.	.
16r	.	.	.	.	.	.
=79	=79	=79	=79	=79	=79	=79
*	*head:regular	*head:x	*	*	*	*
8DD	4re	16Ree/	4r	1ryy	4r	D b
.	.	16ree	.	.	.	.
.	.	.	.	.	.	.
8r	.	8ree	.	.	.	.
.	.	.	.	.	.	.
.	.	.	.	.	.	.
8.AA	16Rf\	16Ree/	4r	.	4r	.
.	16re	16ree	.	.	.	.
.	.	.	.	.	.	.
.	8re	8ree	.	.	.	.
.	.	.	.	.	.	.
16r	.	.	.	.	.	.
4FFF	4re	16Ree/	4r	.	4r	.
.	.	16ree	.	.	.	.
.	.	.	.	.	.	.
.	.	8ree	.	.	.	.
.	.	.	.	.	.	.
.	.	.	.	.	.	.
4CC#	4re	16Ree/	4r	.	4r	.
.	.	16ree	.	.	.	.
.	.	.	.	.	.	.
.	.	8ree	.	.	.	.
.	.	.	.	.	.	.
.	.	.	.	.	.	.
=80	=80	=80	=80	=80	=80	=80
*	*head:regular	*head:x	*	*	*	*
4DD	4re	16Ree/	4r	1ryy	4r	G 7
.	.	16ree	.	.	.	.
.	.	.	.	.	.	.
.	.	8ree	.	.	.	.
.	.	.	.	.	.	.
.	.	.	.	.	.	.
4FF	4re	16Ree/	12F B	.	12d g	.
.	.	16ree	.	.	.	.
.	.	.	12r	.	12r	.
.	.	8ree	.	.	.	.
.	.	.	12r	.	12r	.
.	.	.	.	.	.	.
8GG	4re	4ree	4F B	.	4d g	.
.	.	.	.	.	.	.
.	.	.	.	.	.	.
8r	.	.	.	.	.	.
.	.	.	.	.	.	.
.	.	.	.	.	.	.
8FF	4re	16Ree/	4r	.	4r	.
.	.	16ree	.	.	.	.
.	.	.	.	.	.	.
8r	.	8ree	.	.	.	.
.	.	.	.	.	.	.
.	.	.	.	.	.	.
=81	=81	=81	=81	=81	=81	=81
*	*head:regular	*head:x	*	*	*	*
4GGG	4re	4ree	4r	1ryy	4r	G i
.	.	.	.	.	.	.
.	.	.	.	.	.	.
.	.	.	.	.	.	.
.	.	.	.	.	.	.
.	.	.	.	.	.	.
4AAA#	4re	16Ree/	4F A#	.	4c a	.
.	.	16ree	.	.	.	.
.	.	.	.	.	.	.
.	.	8ree	.	.	.	.
.	.	.	.	.	.	.
.	.	.	.	.	.	.
4AAA#	4re	4ree	4r	.	4r	.
.	.	.	.	.	.	.
.	.	.	.	.	.	.
.	.	.	.	.	.	.
.	.	.	.	.	.	.
.	.	.	.	.	.	.
6FFF#	4re	16Ree/	4r	.	4r	.
.	.	16ree	.	.	.	.
.	.	.	.	.	.	.
.	.	8ree	.	.	.	.
12r	.	.	.	.	.	.
.	.	.	.	.	.	.
=82	=82	=82	=82	=82	=82	=82
*	*head:regular	*head:x	*	*	*	*
4FFF#	4re	4ree	4r	1ryy	4r	F+ J
.	.	.	.	.	.	.
.	.	.	.	.	.	.
.	.	.	.	.	.	.
.	.	.	.	.	.	.
.	.	.	.	.	.	.
4DD	4re	16Ree/	4r	.	4r	.
.	.	16ree	.	.	.	.
.	.	.	.	.	.	.
.	.	8ree	.	.	.	.
.	.	.	.	.	.	.
.	.	.	.	.	.	.
4AAA#	4re	4ree	6E A#	.	6g dd gg	.
.	.	.	.	.	.	.
.	.	.	.	.	.	.
.	.	.	.	.	.	.
.	.	.	12r	.	12r	.
.	.	.	.	.	.	.
8.EE	4re	16Ree/	4r	.	4r	.
.	.	16ree	.	.	.	.
.	.	.	.	.	.	.
.	.	8ree	.	.	.	.
.	.	.	.	.	.	.
16r	.	.	.	.	.	.
=83	=83	=83	=83	=83	=83	=83
*	*head:regular	*head:x	*	*	*	*
8.FF	4re	4ree	4E A	1ryy	4d g	F e
.	.	.	.	.	.	.
.	.	.	.	.	.	.
.	.	.	.	.	.	.
.	.	.	.	.	.	.
16r	.	.	.	.	.	.
4CC	4re	16Ree/	4r	.	4r	.
.	.	16ree	.	.	.	.
.	.	.	.	.	.	.
.	.	8ree	.	.	.	.
.	.	.	.	.	.	.
.	.	.	.	.	.	.
8CC	4re	4ree	4r	.	4r	.
.	.	.	.	.	.	.
.	.	.	.	.	.	.
8r	.	.	.	.	.	.
.	.	.	.	.	.	.
.	.	.	.	.	.	.
4DD	4re	16Ree/	4r	.	4r	.
.	.	16ree	.	.	.	.
.	.	.	.	.	.	.
.	.	8ree	.	.	.	.
.	.	.	.	.	.	.
.	.	.	.	.	.	.
=84	=84	=84	=84	=84	=84	=84
*	*head:regular	*head:x	*	*	*	*
4DD	4re	4ree	4r	1ryy	4r	B U
.	.	.	.	.	.	.
.	.	.	.	.	.	.
.	.	.	.	.	.	.
.	.	.	.	.	.	.
.	.	.	.	.	.	.
4GGG	4re	16Ree/	6D G#	.	6c g	.
.	.	16ree	.	.	.	.
.	.	.	.	.	.	.
.	.	8ree	.	.	.	.
.	.	.	12r	.	12r	.
.	.	.	.	.	.	.
4FFF	4re	4ree	6D G#	.	6c g	.
.	.	.	.	.	.	.
.	.	.	.	.	.	.
.	.	.	.	.	.	.
.	.	.	12r	.	12r	.
.	.	.	.	.	.	.
4AAA#	4re	16Ree/	4r	.	4r	.
.	.	16ree	.	.	.	.
.	.	.	.	.	.	.
.	.	8ree	.	.	.	.
.	.	.	.	.	.	.
.	.	.	.	.	.	.
=85	=85	=85	=85	=85	=85	=85
*	*head:regular	*head:x	*	*	*	*
4BBB	4re	4ree	12D G A	1ryy	12f#	E i
.	.	.	.	.	.	.
.	.	.	12r	.	12r	.
.	.	.	.	.	.	.
.	.	.	12r	.	12r	.
.	.	.	.	.	.	.
4EE	4re	16Ree/	4r	.	4r	.
.	.	16ree	.	.	.	.
.	.	.	.	.	.	.
.	.	8ree	.	.	.	.
.	.	.	.	.	.	.
.	.	.	.	.	.	.
4GG	4re	4ree	4r	.	4r	.
.	.	.	.	.	.	.
.	.	.	.	.	.	.
.	.	.	.	.	.	.
.	.	.	.	.	.	.
.	.	.	.	.	.	.
6AA	4re	16Ree/	4r	.	4r	.
.	.	16ree	.	.	.	.
.	.	.	.	.	.	.
.	.	8ree	.	.	.	.
12r	.	.	.	.	.	.
.	.	.	.	.	.	.
=86	=86	=86	=86	=86	=86	=86
*	*head:regular	*head:x	*	*	*	*
4C#	4re	4ree	6C# G B	1ryy	6f#	A U
.	.	.	.	.	.	.
.	.	.	.	.	.	.
.	.	.	.	.	.	.
.	.	.	12r	.	12r	.
.	.	.	.	.	.	.
4E	4re	16Ree/	4r	.	4r	.
.	.	16ree	.	.	.	.
.	.	.	.	.	.	.
.	.	8ree	.	.	.	.
.	.	.	.	.	.	.
.	.	.	.	.	.	.
4AA	4re	4ree	4r	.	4r	.
.	.	.	.	.	.	.
.	.	.	.	.	.	.
.	.	.	.	.	.	.
.	.	.	.	.	.	.
.	.	.	.	.	.	.
8.FF#	4re	16Ree/	4r	.	4r	.
.	.	16ree	.	.	.	.
.	.	.	.	.	.	.
.	.	8ree	.	.	.	.
.	.	.	.	.	.	.
16r	.	.	.	.	.	.
=87	=87	=87	=87	=87	=87	=87
*	*head:regular	*head:x	*	*	*	*
8.DD	4re	4ree	4r	1ryy	4r	D 9
.	.	.	.	.	.	.
.	.	.	.	.	.	.
.	.	.	.	.	.	.
.	.	.	.	.	.	.
16r	.	.	.	.	.	.
4FF#	4re	16Ree/	4r	.	4r	.
.	.	16ree	.	.	.	.
.	.	.	.	.	.	.
.	.	8ree	.	.	.	.
.	.	.	.	.	.	.
.	.	.	.	.	.	.
8AAA	4re	4ree	4r	.	4r	.
.	.	.	.	.	.	.
.	.	.	.	.	.	.
8r	.	.	.	.	.	.
.	.	.	.	.	.	.
.	.	.	.	.	.	.
4BBB	4re	16Ree/	4r	.	4r	.
.	.	16ree	.	.	.	.
.	.	.	.	.	.	.
.	.	8ree	.	.	.	.
.	.	.	.	.	.	.
.	.	.	.	.	.	.
=88	=88	=88	=88	=88	=88	=88
*	*head:regular	*head:x	*	*	*	*
4BBB	4re	4ree	6F B	1ryy	6d# g	G q
.	.	.	.	.	.	.
.	.	.	.	.	.	.
.	.	.	.	.	.	.
.	.	.	12r	.	12r	.
.	.	.	.	.	.	.
4DD#	4re	16Ree/	4r	.	4r	.
.	.	16ree	.	.	.	.
.	.	.	.	.	.	.
.	.	8ree	.	.	.	.
.	.	.	.	.	.	.
.	.	.	.	.	.	.
8GGG	4re	4ree	4F B	.	4d# g	.
.	.	.	.	.	.	.
.	.	.	.	.	.	.
8r	.	.	.	.	.	.
.	.	.	.	.	.	.
.	.	.	.	.	.	.
8CC	4re	4ree	4r	.	4r	.
.	.	.	.	.	.	.
.	.	.	.	.	.	.
8r	.	.	.	.	.	.
.	.	.	.	.	.	.
.	.	.	.	.	.	.
=89	=89	=89	=89	=89	=89	=89
*	*head:regular	*head:x	*	*	*	*
4CC	4re	4ree	4r	1ryy	4r	C e
.	.	.	.	.	.	.
.	.	.	.	.	.	.
.	.	.	.	.	.	.
.	.	.	.	.	.	.
.	.	.	.	.	.	.
4DD	4re	16Ree/	4r	.	4r	.
.	.	16ree	.	.	.	.
.	.	.	.	.	.	.
.	.	8ree	.	.	.	.
.	.	.	.	.	.	.
.	.	.	.	.	.	.
4EE	4re	16Ree/	4E A	.	4d g b gg	.
.	.	16ree	.	.	.	.
.	.	.	.	.	.	.
.	.	8ree	.	.	.	.
.	.	.	.	.	.	.
.	.	.	.	.	.	.
6CC	4re	16Ree/	4r	.	4r	.
.	.	16ree	.	.	.	.
.	.	.	.	.	.	.
.	.	8ree	.	.	.	.
12r	.	.	.	.	.	.
.	.	.	.	.	.	.
=90	=90	=90	=90	=90	=90	=90
*	*head:regular	*head:x	*	*	*	*
4FFF#	4re	16Ree/	4r	1ryy	4r	G t
.	.	16ree	.	.	.	.
.	.	.	.	.	.	.
.	.	8ree	.	.	.	.
.	.	.	.	.	.	.
.	.	.	.	.	.	.
4CC#	4re	16Ree/	4r	.	4r	.
.	.	16ree	.	.	.	.
.	.	.	.	.	.	.
.	.	8ree	.	.	.	.
.	.	.	.	.	.	.
.	.	.	.	.	.	.
4AAA#	4re	16Ree/	6E A#	.	6c f#	.
.	.	16ree	.	.	.	.
.	.	.	.	.	.	.
.	.	8ree	.	.	.	.
.	.	.	12r	.	12r	.
.	.	.	.	.	.	.
8.CC#	4re	16Ree/	4r	.	4r	.
.	.	16ree	.	.	.	.
.	.	.	.	.	.	.
.	.	8ree	.	.	.	.
.	.	.	.	.	.	.
16r	.	.	.	.	.	.
=91	=91	=91	=91	=91	=91	=91
*	*head:regular	*head:x	*	*	*	*
8.FFF	4re	16Ree/	4r	1ryy	4r	F c
.	.	16ree	.	.	.	.
.	.	.	.	.	.	.
.	.	8ree	.	.	.	.
.	.	.	.	.	.	.
16r	.	.	.	.	.	.
4CC	4re	16Ree/	4r	.	4r	.
.	.	16ree	.	.	.	.
.	.	.	.	.	.	.
.	.	8ree	.	.	.	.
.	.	.	.	.	.	.
.	.	.	.	.	.	.
8CC	4re	16Ree/	4E A	.	4c f	.
.	.	16ree	.	.	.	.
.	.	.	.	.	.	.
8r	.	8ree	.	.	.	.
.	.	.	.	.	.	.
.	.	.	.	.	.	.
4EE	4re	16Ree/	4r	.	4r	.
.	.	16ree	.	.	.	.
.	.	.	.	.	.	.
.	.	8ree	.	.	.	.
.	.	.	.	.	.	.
.	.	.	.	.	.	.
=92	=92	=92	=92	=92	=92	=92
*	*head:regular	*head:x	*	*	*	*
4EE	4re	16Ree/	4r	1ryy	4r	E W
.	.	16ree	.	.	.	.
.	.	.	.	.	.	.
.	.	8ree	.	.	.	.
.	.	.	.	.	.	.
.	.	.	.	.	.	.
4AAA#	4re	16Ree/	4G	.	4d e a#	.
.	.	16ree	.	.	.	.
.	.	.	.	.	.	.
.	.	8ree	.	.	.	.
.	.	.	.	.	.	.
.	.	.	.	.	.	.
4CC#	4re	16Ree/	4r	.	4r	A S
.	.	16ree	.	.	.	.
.	.	.	.	.	.	.
.	.	8ree	.	.	.	.
.	.	.	.	.	.	.
.	.	.	.	.	.	.
4EE	4re	16Ree/	8.G	.	8.c# e a#	.
.	.	16ree	.	.	.	.
.	.	.	.	.	.	.
.	.	8ree	.	.	.	.
.	.	.	.	.	.	.
.	.	.	16r	.	16r	.
=93	=93	=93	=93	=93	=93	=93
*	*head:regular	*head:x	*	*	*	*
4DD	4re	12Ree/	12F	1ryy	12c e g dd gg	D i
.	.	.	.	.	.	.
.	.	12ree	12r	.	12r	.
.	.	.	.	.	.	.
.	.	12ree	12r	.	12r	.
.	.	.	.	.	.	.
4CC	4re	12Ree/	4r	.	4r	.
.	.	.	.	.	.	.
.	.	12ree	.	.	.	.
.	.	.	.	.	.	.
.	.	12ree	.	.	.	.
.	.	.	.	.	.	.
6AAA	4re	12Ree/	4r	.	4r	.
.	.	.	.	.	.	.
.	.	12ree	.	.	.	.
.	.	.	.	.	.	.
12r	.	12ree	.	.	.	.
.	.	.	.	.	.	.
4CC	4re	12Ree/	4r	.	4r	.
.	.	.	.	.	.	.
.	.	12ree	.	.	.	.
.	.	.	.	.	.	.
.	.	12ree	.	.	.	.
.	.	.	.	.	.	.
=94	=94	=94	=94	=94	=94	=94
*	*head:regular	*head:x	*	*	*	*
4CC#	4re	16Ree/	4r	1ryy	4r	C+ I
.	.	16ree	.	.	.	.
.	.	.	.	.	.	.
.	.	8ree	.	.	.	.
.	.	.	.	.	.	.
.	.	.	.	.	.	.
4GGG#	4re	16Ree/	4r	.	4r	.
.	.	16ree	.	.	.	.
.	.	.	.	.	.	.
.	.	8ree	.	.	.	.
.	.	.	.	.	.	.
.	.	.	.	.	.	.
4GG#	4re	12Ree/	6B	.	6f a dd	.
.	.	.	.	.	.	.
.	.	12ree	.	.	.	.
.	.	.	.	.	.	.
.	.	12ree	12r	.	12r	.
.	.	.	.	.	.	.
8.FF	4re	12Ree/	4r	.	4r	.
.	.	.	.	.	.	.
.	.	12ree	.	.	.	.
.	.	.	.	.	.	.
.	.	12ree	.	.	.	.
16r	.	.	.	.	.	.
=95	=95	=95	=95	=95	=95	=95
*	*head:regular	*head:x	*	*	*	*
8C	12Rf\	12Ree/	4r	1ryy	4r	C 6
.	.	.	.	.	.	.
.	12re	12ree	.	.	.	.
8r	.	.	.	.	.	.
.	12re	12ree	.	.	.	.
.	.	.	.	.	.	.
8.GG	4re	12Ree/	4r	.	4r	.
.	.	.	.	.	.	.
.	.	12ree	.	.	.	.
.	.	.	.	.	.	.
.	.	12ree	.	.	.	.
16r	.	.	.	.	.	.
4GG	4re	4ree	4r	.	4r	G 9
.	.	.	.	.	.	.
.	.	.	.	.	.	.
.	.	.	.	.	.	.
.	.	.	.	.	.	.
.	.	.	.	.	.	.
4FF	4re	12Ree/	4r	.	4r	.
.	.	.	.	.	.	.
.	.	12ree	.	.	.	.
.	.	.	.	.	.	.
.	.	12ree	.	.	.	.
.	.	.	.	.	.	.
=96	=96	=96	=96	=96	=96	=96
*	*head:regular	*head:x	*	*	*	*
4CC	4re	12Ree/	6C E A	1ryy	6c	C 6
.	.	.	.	.	.	.
.	.	12ree	.	.	.	.
.	.	.	.	.	.	.
.	.	12ree	12r	.	12r	.
.	.	.	.	.	.	.
4GGG#	4re	12Ree/	4C E A	.	4c	.
.	.	.	.	.	.	.
.	.	12ree	.	.	.	.
.	.	.	.	.	.	.
.	.	12ree	.	.	.	.
.	.	.	.	.	.	.
8GGG	4re	16Ree/	4BB F A	.	4d	G 9
.	.	16ree	.	.	.	.
.	.	.	.	.	.	.
8r	.	8ree	.	.	.	.
.	.	.	.	.	.	.
.	.	.	.	.	.	.
8DD	4re	16Ree/	4r	.	4r	.
.	.	16ree	.	.	.	.
.	.	.	.	.	.	.
8r	.	8ree	.	.	.	.
.	.	.	.	.	.	.
.	.	.	.	.	.	.
=97	=97	=97	=97	=97	=97	=97
*	*head:regular	*head:x	*	*	*	*
4CC	4re	4ree	4r	1ryy	4r	C 6
.	.	.	.	.	.	.
.	.	.	.	.	.	.
.	.	.	.	.	.	.
.	.	.	.	.	.	.
.	.	.	.	.	.	.
4GG	4re	16Ree/	4r	.	4r	.
.	.	16ree	.	.	.	.
.	.	.	.	.	.	.
.	.	8ree	.	.	.	.
.	.	.	.	.	.	.
.	.	.	.	.	.	.
4GGG	4re	16Ree/	4E	.	4c g a cc	.
.	.	16ree	.	.	.	.
.	.	.	.	.	.	.
.	.	8ree	.	.	.	.
.	.	.	.	.	.	.
.	.	.	.	.	.	.
4AAA	4re	16Ree/	4r	.	4r	.
.	.	16ree	.	.	.	.
.	.	.	.	.	.	.
.	.	8ree	.	.	.	.
.	.	.	.	.	.	.
.	.	.	.	.	.	.
=98	=98	=98	=98	=98	=98	=98
*	*head:regular	*head:x	*	*	*	*
4CC#	4re	16Ree/	4r	1ryy	4r	G t
.	.	16ree	.	.	.	.
.	.	.	.	.	.	.
.	.	8ree	.	.	.	.
.	.	.	.	.	.	.
.	.	.	.	.	.	.
4FFF#	16Rf\	16Ree/	4r	.	4r	.
.	16re	16ree	.	.	.	.
.	.	.	.	.	.	.
.	8re	8ree	.	.	.	.
.	.	.	.	.	.	.
.	.	.	.	.	.	.
4FF#	4re	16Ree/	4E A#	.	4c f#	.
.	.	16ree	.	.	.	.
.	.	.	.	.	.	.
.	.	8ree	.	.	.	.
.	.	.	.	.	.	.
.	.	.	.	.	.	.
4FFF#	4re	16Ree/	4r	.	4r	.
.	.	16ree	.	.	.	.
.	.	.	.	.	.	.
.	.	8ree	.	.	.	.
.	.	.	.	.	.	.
.	.	.	.	.	.	.
=99	=99	=99	=99	=99	=99	=99
*	*head:regular	*head:x	*	*	*	*
4FFF	4re	16Ree/	4r	1ryy	4r	F c
.	.	16ree	.	.	.	.
.	.	.	.	.	.	.
.	.	8ree	.	.	.	.
.	.	.	.	.	.	.
.	.	.	.	.	.	.
4CC	4re	16Ree/	4r	.	4r	.
.	.	16ree	.	.	.	.
.	.	.	.	.	.	.
.	.	8ree	.	.	.	.
.	.	.	.	.	.	.
.	.	.	.	.	.	.
4CC	4re	16Ree/	4E A	.	4c f	.
.	.	16ree	.	.	.	.
.	.	.	.	.	.	.
.	.	8ree	.	.	.	.
.	.	.	.	.	.	.
.	.	.	.	.	.	.
4AAA	4re	16Ree/	4r	.	4r	.
.	.	16ree	.	.	.	.
.	.	.	.	.	.	.
.	.	8ree	.	.	.	.
.	.	.	.	.	.	.
.	.	.	.	.	.	.
=100	=100	=100	=100	=100	=100	=100
*	*head:regular	*head:x	*	*	*	*
4EEE	16Rf\	16Ree/	4D G A#	1ryy	4e	E W
.	16re	16ree	.	.	.	.
.	.	.	.	.	.	.
.	8re	8ree	.	.	.	.
.	.	.	.	.	.	.
.	.	.	.	.	.	.
4CC	16Rf\	16Ree/	4r	.	4r	.
.	16re	16ree	.	.	.	.
.	.	.	.	.	.	.
.	8re	8ree	.	.	.	.
.	.	.	.	.	.	.
.	.	.	.	.	.	.
4CC#	4re	16Ree/	4r	.	4r	A S
.	.	16ree	.	.	.	.
.	.	.	.	.	.	.
.	.	8ree	.	.	.	.
.	.	.	.	.	.	.
.	.	.	.	.	.	.
4EE	4re	16Ree/	4r	.	4r	.
.	.	16ree	.	.	.	.
.	.	.	.	.	.	.
.	.	8ree	.	.	.	.
.	.	.	.	.	.	.
.	.	.	.	.	.	.
=101	=101	=101	=101	=101	=101	=101
*	*head:regular	*head:x	*	*	*	*
4AA	16Rf\	16Ree/	4r	1ryy	4r	A h
.	16re	16ree	.	.	.	.
.	.	.	.	.	.	.
.	8re	8ree	.	.	.	.
.	.	.	.	.	.	.
.	.	.	.	.	.	.
4EE	4re	16Ree/	4r	.	4r	.
.	.	16ree	.	.	.	.
.	.	.	.	.	.	.
.	.	8ree	.	.	.	.
.	.	.	.	.	.	.
.	.	.	.	.	.	.
6CC	4re	16Ree/	4G	.	4c e b	.
.	.	16ree	.	.	.	.
.	.	.	.	.	.	.
.	.	8ree	.	.	.	.
12r	.	.	.	.	.	.
.	.	.	.	.	.	.
4AAA	4re	16Ree/	4r	.	4r	.
.	.	16ree	.	.	.	.
.	.	.	.	.	.	.
.	.	8ree	.	.	.	.
.	.	.	.	.	.	.
.	.	.	.	.	.	.
=102	=102	=102	=102	=102	=102	=102
*	*head:regular	*head:x	*	*	*	*
4DD	4re	16Ree/	4r	1ryy	4r	D U
.	.	16ree	.	.	.	.
.	.	.	.	.	.	.
.	.	8ree	.	.	.	.
.	.	.	.	.	.	.
.	.	.	.	.	.	.
4BBB	4re	16Ree/	4r	.	4r	.
.	.	16ree	.	.	.	.
.	.	.	.	.	.	.
.	.	8ree	.	.	.	.
.	.	.	.	.	.	.
.	.	.	.	.	.	.
4FFF#	4re	16Ree/	6F#	.	6c e b	.
.	.	16ree	.	.	.	.
.	.	.	.	.	.	.
.	.	8ree	.	.	.	.
.	.	.	12r	.	12r	.
.	.	.	.	.	.	.
8.AAA	4re	16Ree/	4r	.	4r	.
.	.	16ree	.	.	.	.
.	.	.	.	.	.	.
.	.	8ree	.	.	.	.
.	.	.	.	.	.	.
16r	.	.	.	.	.	.
=103	=103	=103	=103	=103	=103	=103
*	*head:regular	*head:x	*	*	*	*
8DD	4re	16Ree/	4r	1ryy	4r	D i
.	.	16ree	.	.	.	.
.	.	.	.	.	.	.
8r	.	8ree	.	.	.	.
.	.	.	.	.	.	.
.	.	.	.	.	.	.
8.GG	4re	16Ree/	4r	.	4r	.
.	.	16ree	.	.	.	.
.	.	.	.	.	.	.
.	.	8ree	.	.	.	.
.	.	.	.	.	.	.
16r	.	.	.	.	.	.
4AA	4re	4ree	4C F G	.	4e	.
.	.	.	.	.	.	.
.	.	.	.	.	.	.
.	.	.	.	.	.	.
.	.	.	.	.	.	.
.	.	.	.	.	.	.
4FF	4re	16Ree/	4r	.	4r	.
.	.	16ree	.	.	.	.
.	.	.	.	.	.	.
.	.	8ree	.	.	.	.
.	.	.	.	.	.	.
.	.	.	.	.	.	.
=104	=104	=104	=104	=104	=104	=104
*	*head:regular	*head:x	*	*	*	*
4C#	4re	16Ree/	4r	1ryy	4r	C+ o
.	.	16ree	.	.	.	.
.	.	.	.	.	.	.
.	.	8ree	.	.	.	.
.	.	.	.	.	.	.
.	.	.	.	.	.	.
4F	4re	16Ree/	4r	.	4r	.
.	.	16ree	.	.	.	.
.	.	.	.	.	.	.
.	.	8ree	.	.	.	.
.	.	.	.	.	.	.
.	.	.	.	.	.	.
8GG#	4re	16Ree/	4B	.	4f a# ee	.
.	.	16ree	.	.	.	.
.	.	.	.	.	.	.
8r	.	8ree	.	.	.	.
.	.	.	.	.	.	.
.	.	.	.	.	.	.
4r	4re	16Ree/	4r	.	4r	.
.	.	16ree	.	.	.	.
.	.	.	.	.	.	.
.	.	8ree	.	.	.	.
.	.	.	.	.	.	.
.	.	.	.	.	.	.
=105	=105	=105	=105	=105	=105	=105
*	*head:regular	*head:x	*	*	*	*
4CC	4re	4ree	4r	1ryy	4r	C e
.	.	.	.	.	.	.
.	.	.	.	.	.	.
.	.	.	.	.	.	.
.	.	.	.	.	.	.
.	.	.	.	.	.	.
4GGG#	4re	16Ree/	4r	.	4r	.
.	.	16ree	.	.	.	.
.	.	.	.	.	.	.
.	.	8ree	.	.	.	.
.	.	.	.	.	.	.
.	.	.	.	.	.	.
4GGG	4re	16Ree/	6E A	.	6d g b gg	.
.	.	16ree	.	.	.	.
.	.	.	.	.	.	.
.	.	8ree	.	.	.	.
.	.	.	12r	.	12r	.
.	.	.	.	.	.	.
6AAA	4re	16Ree/	4r	.	4r	.
.	.	16ree	.	.	.	.
.	.	.	.	.	.	.
.	.	8ree	.	.	.	.
12r	.	.	.	.	.	.
.	.	.	.	.	.	.
=106	=106	=106	=106	=106	=106	=106
*	*head:regular	*head:x	*	*	*	*
4AAA#	4re	16Ree/	4r	1ryy	4r	G t
.	.	16ree	.	.	.	.
.	.	.	.	.	.	.
.	.	8ree	.	.	.	.
.	.	.	.	.	.	.
.	.	.	.	.	.	.
4GGG	4re	16Ree/	4r	.	4r	.
.	.	16ree	.	.	.	.
.	.	.	.	.	.	.
.	.	8ree	.	.	.	.
.	.	.	.	.	.	.
.	.	.	.	.	.	.
4FFF#	4re	16Ree/	4E A#	.	4c f#	.
.	.	16ree	.	.	.	.
.	.	.	.	.	.	.
.	.	8ree	.	.	.	.
.	.	.	.	.	.	.
.	.	.	.	.	.	.
8CC	4re	16Ree/	4r	.	4r	.
.	.	16ree	.	.	.	.
.	.	.	.	.	.	.
8r	.	8ree	.	.	.	.
.	.	.	.	.	.	.
.	.	.	.	.	.	.
=107	=107	=107	=107	=107	=107	=107
*	*head:regular	*head:x	*	*	*	*
8.CC	4re	16Ree/	4r	1ryy	4r	F e
.	.	16ree	.	.	.	.
.	.	.	.	.	.	.
.	.	8ree	.	.	.	.
.	.	.	.	.	.	.
16r	.	.	.	.	.	.
4GG#	4re	16Ree/	4r	.	4r	.
.	.	16ree	.	.	.	.
.	.	.	.	.	.	.
.	.	8ree	.	.	.	.
.	.	.	.	.	.	.
.	.	.	.	.	.	.
4AA	4re	16Ree/	4r	.	4r	.
.	.	16ree	.	.	.	.
.	.	.	.	.	.	.
.	.	8ree	.	.	.	.
.	.	.	.	.	.	.
.	.	.	.	.	.	.
4GGG#	4re	16Ree/	4r	.	4r	.
.	.	16ree	.	.	.	.
.	.	.	.	.	.	.
.	.	8ree	.	.	.	.
.	.	.	.	.	.	.
.	.	.	.	.	.	.
=108	=108	=108	=108	=108	=108	=108
*	*head:regular	*head:x	*	*	*	*
4GGG	4re	16Ree/	6G	1ryy	6d e a#	E W
.	.	16ree	.	.	.	.
.	.	.	.	.	.	.
.	.	8ree	.	.	.	.
.	.	.	12r	.	12r	.
.	.	.	.	.	.	.
4AAA#	4re	16Ree/	4r	.	4r	.
.	.	16ree	.	.	.	.
.	.	.	.	.	.	.
.	.	8ree	.	.	.	.
.	.	.	.	.	.	.
.	.	.	.	.	.	.
4CC#	4re	16Ree/	6G	.	6c# e a#	A S
.	.	16ree	.	.	.	.
.	.	.	.	.	.	.
.	.	8ree	.	.	.	.
.	.	.	12r	.	12r	.
.	.	.	.	.	.	.
6EE	4re	16Ree/	4r	.	4r	.
.	.	16ree	.	.	.	.
.	.	.	.	.	.	.
.	.	8ree	.	.	.	.
12r	.	.	.	.	.	.
.	.	.	.	.	.	.
=109	=109	=109	=109	=109	=109	=109
*	*head:regular	*head:x	*	*	*	*
4AAA	4re	12Ree/	4r	1ryy	4r	A b
.	.	.	.	.	.	.
.	.	12ree	.	.	.	.
.	.	.	.	.	.	.
.	.	12ree	.	.	.	.
.	.	.	.	.	.	.
4CC	4re	12Ree/	4r	.	4r	.
.	.	.	.	.	.	.
.	.	12ree	.	.	.	.
.	.	.	.	.	.	.
.	.	12ree	.	.	.	.
.	.	.	.	.	.	.
4CC	4re	12Ree/	4G	.	4c e a	.
.	.	.	.	.	.	.
.	.	12ree	.	.	.	.
.	.	.	.	.	.	.
.	.	12ree	.	.	.	.
.	.	.	.	.	.	.
6GG	4re	12Ree/	4r	.	4r	.
.	.	.	.	.	.	.
.	.	12ree	.	.	.	.
.	.	.	.	.	.	.
12r	.	12ree	.	.	.	.
.	.	.	.	.	.	.
=110	=110	=110	=110	=110	=110	=110
*	*head:regular	*head:x	*	*	*	*
4AA	4re	12Ree/	4r	1ryy	4r	D 7
.	.	.	.	.	.	.
.	.	12ree	.	.	.	.
.	.	.	.	.	.	.
.	.	12ree	.	.	.	.
.	.	.	.	.	.	.
4DD	4re	12Ree/	4r	.	4r	.
.	.	.	.	.	.	.
.	.	12ree	.	.	.	.
.	.	.	.	.	.	.
.	.	12ree	.	.	.	.
.	.	.	.	.	.	.
4DD	4re	12Ree/	4r	.	6c f# a dd	.
.	.	.	.	.	.	.
.	.	12ree	.	.	.	.
.	.	.	.	.	.	.
.	.	12ree	.	.	12r	.
.	.	.	.	.	.	.
8AAA	4re	16Ree/	4r	.	4r	.
.	.	16ree	.	.	.	.
.	.	.	.	.	.	.
8r	.	8ree	.	.	.	.
.	.	.	.	.	.	.
.	.	.	.	.	.	.
=111	=111	=111	=111	=111	=111	=111
*	*head:regular	*head:x	*	*	*	*
8.DD	4re	12Ree/	4r	1ryy	4r	D h
.	.	.	.	.	.	.
.	.	12ree	.	.	.	.
.	.	.	.	.	.	.
.	.	12ree	.	.	.	.
16r	.	.	.	.	.	.
4AAA	4re	12Ree/	4r	.	4r	.
.	.	.	.	.	.	.
.	.	12ree	.	.	.	.
.	.	.	.	.	.	.
.	.	12ree	.	.	.	.
.	.	.	.	.	.	.
4AAA	4re	12Ree/	4F	.	4c e a	.
.	.	.	.	.	.	.
.	.	12ree	.	.	.	.
.	.	.	.	.	.	.
.	.	12ree	.	.	.	.
.	.	.	.	.	.	.
4AAA#	4re	12Ree/	4r	.	4r	.
.	.	.	.	.	.	.
.	.	12ree	.	.	.	.
.	.	.	.	.	.	.
.	.	12ree	.	.	.	.
.	.	.	.	.	.	.
=112	=112	=112	=112	=112	=112	=112
*	*head:regular	*head:x	*	*	*	*
4BBB	12Rf\	12Ree/	4r	1ryy	4r	G U
.	.	.	.	.	.	.
.	12re	12ree	.	.	.	.
.	.	.	.	.	.	.
.	12re	12ree	.	.	.	.
.	.	.	.	.	.	.
4FF#	4re	12Ree/	4F B	.	4e a	.
.	.	.	.	.	.	.
.	.	12ree	.	.	.	.
.	.	.	.	.	.	.
.	.	12ree	.	.	.	.
.	.	.	.	.	.	.
8GG	4re	4ree	4F B	.	4e a	.
.	.	.	.	.	.	.
.	.	.	.	.	.	.
8r	.	.	.	.	.	.
.	.	.	.	.	.	.
.	.	.	.	.	.	.
8D	4re	16Ree/	4r	.	4r	.
.	.	16ree	.	.	.	.
.	.	.	.	.	.	.
8r	.	8ree	.	.	.	.
.	.	.	.	.	.	.
.	.	.	.	.	.	.
=113	=113	=113	=113	=113	=113	=113
*	*head:regular	*head:x	*	*	*	*
4GG	4re	4ree	4r	1ryy	4r	G i
.	.	.	.	.	.	.
.	.	.	.	.	.	.
.	.	.	.	.	.	.
.	.	.	.	.	.	.
.	.	.	.	.	.	.
4FF#	4re	16Ree/	4r	.	4r	.
.	.	16ree	.	.	.	.
.	.	.	.	.	.	.
.	.	8ree	.	.	.	.
.	.	.	.	.	.	.
.	.	.	.	.	.	.
4GG	4re	4ree	4A#	.	4f a cc	.
.	.	.	.	.	.	.
.	.	.	.	.	.	.
.	.	.	.	.	.	.
.	.	.	.	.	.	.
.	.	.	.	.	.	.
4FF	4re	16Ree/	4r	.	4r	.
.	.	16ree	.	.	.	.
.	.	.	.	.	.	.
.	.	8ree	.	.	.	.
.	.	.	.	.	.	.
.	.	.	.	.	.	.
=114	=114	=114	=114	=114	=114	=114
*	*head:regular	*head:x	*	*	*	*
4AAA#	12Rf\	4ree	4E A#	1ryy	4d# g#	F+ U
.	.	.	.	.	.	.
.	12re	.	.	.	.	.
.	.	.	.	.	.	.
.	12re	.	.	.	.	.
.	.	.	.	.	.	.
4GGG	4re	16Ree/	4r	.	4r	.
.	.	16ree	.	.	.	.
.	.	.	.	.	.	.
.	.	8ree	.	.	.	.
.	.	.	.	.	.	.
.	.	.	.	.	.	.
4FFF#	4re	4ree	4r	.	4r	.
.	.	.	.	.	.	.
.	.	.	.	.	.	.
.	.	.	.	.	.	.
.	.	.	.	.	.	.
.	.	.	.	.	.	.
4CC#	4re	16Ree/	4r	.	4r	.
.	.	16ree	.	.	.	.
.	.	.	.	.	.	.
.	.	8ree	.	.	.	.
.	.	.	.	.	.	.
.	.	.	.	.	.	.
=115	=115	=115	=115	=115	=115	=115
*	*head:regular	*head:x	*	*	*	*
4CC	4re	4ree	4E A	1ryy	4d g	F e
.	.	.	.	.	.	.
.	.	.	.	.	.	.
.	.	.	.	.	.	.
.	.	.	.	.	.	.
.	.	.	.	.	.	.
4FFF#	4re	16Ree/	4r	.	4r	.
.	.	16ree	.	.	.	.
.	.	.	.	.	.	.
.	.	8ree	.	.	.	.
.	.	.	.	.	.	.
.	.	.	.	.	.	.
4FFF	4re	4ree	4E A	.	4d g	.
.	.	.	.	.	.	.
.	.	.	.	.	.	.
.	.	.	.	.	.	.
.	.	.	.	.	.	.
.	.	.	.	.	.	.
4CC	4re	16Ree/	4A	.	4d g cc ee ccc	.
.	.	16ree	.	.	.	.
.	.	.	.	.	.	.
.	.	8ree	.	.	.	.
.	.	.	.	.	.	.
.	.	.	.	.	.	.
=116	=116	=116	=116	=116	=116	=116
*	*head:regular	*head:x	*	*	*	*
4AAA#	4re	4ree	6G#	1ryy	6d f cc ff ccc	B 9
.	.	.	.	.	.	.
.	.	.	.	.	.	.
.	.	.	.	.	.	.
.	.	.	12r	.	12r	.
.	.	.	.	.	.	.
4FF	4re	16Ree/	4r	.	4r	.
.	.	16ree	.	.	.	.
.	.	.	.	.	.	.
.	.	8ree	.	.	.	.
.	.	.	.	.	.	.
.	.	.	.	.	.	.
4FF	4re	4ree	4r	.	4r	.
.	.	.	.	.	.	.
.	.	.	.	.	.	.
.	.	.	.	.	.	.
.	.	.	.	.	.	.
.	.	.	.	.	.	.
4FFF	4re	16Ree/	4r	.	4r	.
.	.	16ree	.	.	.	.
.	.	.	.	.	.	.
.	.	8ree	.	.	.	.
.	.	.	.	.	.	.
.	.	.	.	.	.	.
=117	=117	=117	=117	=117	=117	=117
*	*head:regular	*head:x	*	*	*	*
6EEE	4re	4ree	4r	1ryy	4r	E i
.	.	.	.	.	.	.
.	.	.	.	.	.	.
.	.	.	.	.	.	.
12r	.	.	.	.	.	.
.	.	.	.	.	.	.
8.AAA#	4re	16Ree/	4r	.	4r	.
.	.	16ree	.	.	.	.
.	.	.	.	.	.	.
.	.	8ree	.	.	.	.
.	.	.	.	.	.	.
16r	.	.	.	.	.	.
4BBB	4re	4ree	4D G A	.	4f#	.
.	.	.	.	.	.	.
.	.	.	.	.	.	.
.	.	.	.	.	.	.
.	.	.	.	.	.	.
.	.	.	.	.	.	.
4EE	4re	16Ree/	4r	.	4r	.
.	.	16ree	.	.	.	.
.	.	.	.	.	.	.
.	.	8ree	.	.	.	.
.	.	.	.	.	.	.
.	.	.	.	.	.	.
=118	=118	=118	=118	=118	=118	=118
*	*head:regular	*head:x	*	*	*	*
8EEE	4re	4ree	4r	1ryy	4r	A U
.	.	.	.	.	.	.
.	.	.	.	.	.	.
8r	.	.	.	.	.	.
.	.	.	.	.	.	.
.	.	.	.	.	.	.
4GGG	4re	16Ree/	4r	.	4r	.
.	.	16ree	.	.	.	.
.	.	.	.	.	.	.
.	.	8ree	.	.	.	.
.	.	.	.	.	.	.
.	.	.	.	.	.	.
4CC#	4re	4ree	4C# G B	.	4f#	.
.	.	.	.	.	.	.
.	.	.	.	.	.	.
.	.	.	.	.	.	.
.	.	.	.	.	.	.
.	.	.	.	.	.	.
6EE	4re	16Ree/	4r	.	4r	.
.	.	16ree	.	.	.	.
.	.	.	.	.	.	.
.	.	8ree	.	.	.	.
12r	.	.	.	.	.	.
.	.	.	.	.	.	.
=119	=119	=119	=119	=119	=119	=119
*	*head:regular	*head:x	*	*	*	*
4AA	4re	4ree	4r	1ryy	4r	D 9
.	.	.	.	.	.	.
.	.	.	.	.	.	.
.	.	.	.	.	.	.
.	.	.	.	.	.	.
.	.	.	.	.	.	.
4DD#	4re	16Ree/	4r	.	4r	.
.	.	16ree	.	.	.	.
.	.	.	.	.	.	.
.	.	8ree	.	.	.	.
.	.	.	.	.	.	.
.	.	.	.	.	.	.
4DD	4re	4ree	4r	.	4c f# a ee	.
.	.	.	.	.	.	.
.	.	.	.	.	.	.
.	.	.	.	.	.	.
.	.	.	.	.	.	.
.	.	.	.	.	.	.
4AAA	4re	16Ree/	4r	.	4r	.
.	.	16ree	.	.	.	.
.	.	.	.	.	.	.
.	.	8ree	.	.	.	.
.	.	.	.	.	.	.
.	.	.	.	.	.	.
=120	=120	=120	=120	=120	=120	=120
*	*head:regular	*head:x	*	*	*	*
4DD#	4re	4ree	4F B	1ryy	4d# g dd gg	G q
.	.	.	.	.	.	.
.	.	.	.	.	.	.
.	.	.	.	.	.	.
.	.	.	.	.	.	.
.	.	.	.	.	.	.
4GGG#	4re	16Ree/	4r	.	4r	.
.	.	16ree	.	.	.	.
.	.	.	.	.	.	.
.	.	8ree	.	.	.	.
.	.	.	.	.	.	.
.	.	.	.	.	.	.
8GGG	4re	4ree	4F B	.	4d# g	.
.	.	.	.	.	.	.
.	.	.	.	.	.	.
8r	.	.	.	.	.	.
.	.	.	.	.	.	.
.	.	.	.	.	.	.
8DD#	4re	16Ree/	4r	.	4r	.
.	.	16ree	.	.	.	.
.	.	.	.	.	.	.
8r	.	8ree	.	.	.	.
.	.	.	.	.	.	.
.	.	.	.	.	.	.
=121	=121	=121	=121	=121	=121	=121
*	*head:regular	*head:x	*	*	*	*
4CC	4re	4ree	4r	1ryy	4r	C c
.	.	.	.	.	.	.
.	.	.	.	.	.	.
.	.	.	.	.	.	.
.	.	.	.	.	.	.
.	.	.	.	.	.	.
4GGG	4re	12Ree/	4r	.	4r	.
.	.	.	.	.	.	.
.	.	12ree	.	.	.	.
.	.	.	.	.	.	.
.	.	12ree	.	.	.	.
.	.	.	.	.	.	.
4EE	4re	12Ree/	4E B	.	4g cc gg	.
.	.	.	.	.	.	.
.	.	12ree	.	.	.	.
.	.	.	.	.	.	.
.	.	12ree	.	.	.	.
.	.	.	.	.	.	.
6CC	4re	12Ree/	4r	.	4r	.
.	.	.	.	.	.	.
.	.	12ree	.	.	.	.
.	.	.	.	.	.	.
12r	.	12ree	.	.	.	.
.	.	.	.	.	.	.
=122	=122	=122	=122	=122	=122	=122
*	*head:regular	*head:x	*	*	*	*
4AA#	12Rf\	12Ree/	4r	1ryy	4r	G t
.	.	.	.	.	.	.
.	12re	12ree	.	.	.	.
.	.	.	.	.	.	.
.	12re	12ree	.	.	.	.
.	.	.	.	.	.	.
4C#	4re	12Ree/	4r	.	4r	.
.	.	.	.	.	.	.
.	.	12ree	.	.	.	.
.	.	.	.	.	.	.
.	.	12ree	.	.	.	.
.	.	.	.	.	.	.
4FF#	4re	12Ree/	4E A#	.	4c f#	.
.	.	.	.	.	.	.
.	.	12ree	.	.	.	.
.	.	.	.	.	.	.
.	.	12ree	.	.	.	.
.	.	.	.	.	.	.
8EE	4re	12Ree/	4r	.	4r	.
.	.	.	.	.	.	.
.	.	12ree	.	.	.	.
8r	.	.	.	.	.	.
.	.	12ree	.	.	.	.
.	.	.	.	.	.	.
=123	=123	=123	=123	=123	=123	=123
*	*head:regular	*head:x	*	*	*	*
8.CC	4re	12Ree/	4E A	1ryy	4c f	F c
.	.	.	.	.	.	.
.	.	12ree	.	.	.	.
.	.	.	.	.	.	.
.	.	12ree	.	.	.	.
16r	.	.	.	.	.	.
4FFF	4re	12Ree/	4r	.	4r	.
.	.	.	.	.	.	.
.	.	12ree	.	.	.	.
.	.	.	.	.	.	.
.	.	12ree	.	.	.	.
.	.	.	.	.	.	.
4FFF	4re	12Ree/	6E A	.	6c f	.
.	.	.	.	.	.	.
.	.	12ree	.	.	.	.
.	.	.	.	.	.	.
.	.	12ree	12r	.	12r	.
.	.	.	.	.	.	.
4AAA	4re	12Ree/	4r	.	4r	.
.	.	.	.	.	.	.
.	.	12ree	.	.	.	.
.	.	.	.	.	.	.
.	.	12ree	.	.	.	.
.	.	.	.	.	.	.
=124	=124	=124	=124	=124	=124	=124
*	*head:regular	*head:x	*	*	*	*
4AAA#	4re	12Ree/	6D G A#	1ryy	6e	E W
.	.	.	.	.	.	.
.	.	12ree	.	.	.	.
.	.	.	.	.	.	.
.	.	12ree	12r	.	12r	.
.	.	.	.	.	.	.
4EE	4re	12Ree/	4r	.	4r	.
.	.	.	.	.	.	.
.	.	12ree	.	.	.	.
.	.	.	.	.	.	.
.	.	12ree	.	.	.	.
.	.	.	.	.	.	.
4EEE	4re	12Ree/	4r	.	4r	A S
.	.	.	.	.	.	.
.	.	12ree	.	.	.	.
.	.	.	.	.	.	.
.	.	12ree	.	.	.	.
.	.	.	.	.	.	.
6AAA	4re	12Ree/	4r	.	4r	.
.	.	.	.	.	.	.
.	.	12ree	.	.	.	.
.	.	.	.	.	.	.
12r	.	12ree	.	.	.	.
.	.	.	.	.	.	.
=125	=125	=125	=125	=125	=125	=125
*	*head:regular	*head:x	*	*	*	*
4DD	4re	12Ree/	4r	1ryy	4r	D i
.	.	.	.	.	.	.
.	.	12ree	.	.	.	.
.	.	.	.	.	.	.
.	.	12ree	.	.	.	.
.	.	.	.	.	.	.
4FF	4re	12Ree/	4r	.	4r	.
.	.	.	.	.	.	.
.	.	12ree	.	.	.	.
.	.	.	.	.	.	.
.	.	12ree	.	.	.	.
.	.	.	.	.	.	.
4FF	12Rf\	16Ree/	4C F G	.	4e	.
.	.	16ree	.	.	.	.
.	12re	.	.	.	.	.
.	.	8ree	.	.	.	.
.	12re	.	.	.	.	.
.	.	.	.	.	.	.
6AA	4re	12Ree/	4r	.	4r	.
.	.	.	.	.	.	.
.	.	12ree	.	.	.	.
.	.	.	.	.	.	.
12r	.	12ree	.	.	.	.
.	.	.	.	.	.	.
=126	=126	=126	=126	=126	=126	=126
*	*head:regular	*head:x	*	*	*	*
4AAA	4re	12Ree/	4r	1ryy	4r	C+ q
.	.	.	.	.	.	.
.	.	12ree	.	.	.	.
.	.	.	.	.	.	.
.	.	12ree	.	.	.	.
.	.	.	.	.	.	.
4BBB	4re	12Ree/	4r	.	4r	.
.	.	.	.	.	.	.
.	.	12ree	.	.	.	.
.	.	.	.	.	.	.
.	.	12ree	.	.	.	.
.	.	.	.	.	.	.
4CC#	4re	12Ree/	6B	.	6f a cc#	.
.	.	.	.	.	.	.
.	.	12ree	.	.	.	.
.	.	.	.	.	.	.
.	.	12ree	12r	.	12r	.
.	.	.	.	.	.	.
8BBB	4re	12Ree/	4r	.	4r	.
.	.	.	.	.	.	.
.	.	12ree	.	.	.	.
8r	.	.	.	.	.	.
.	.	12ree	.	.	.	.
.	.	.	.	.	.	.
=127	=127	=127	=127	=127	=127	=127
*	*head:regular	*head:x	*	*	*	*
8.EEE	12Rf\	12Ree/	4r	1ryy	4r	C 6
.	.	.	.	.	.	.
.	12re	12ree	.	.	.	.
.	.	.	.	.	.	.
.	12re	12ree	.	.	.	.
16r	.	.	.	.	.	.
4AAA#	4re	12Ree/	4r	.	4r	.
.	.	.	.	.	.	.
.	.	12ree	.	.	.	.
.	.	.	.	.	.	.
.	.	12ree	.	.	.	.
.	.	.	.	.	.	.
4BBB	4re	16Ree/	4F B	.	4d g	G 7
.	.	16ree	.	.	.	.
.	.	.	.	.	.	.
.	.	8ree	.	.	.	.
.	.	.	.	.	.	.
.	.	.	.	.	.	.
4DD	4re	12Ree/	4r	.	4r	.
.	.	.	.	.	.	.
.	.	12ree	.	.	.	.
.	.	.	.	.	.	.
.	.	12ree	.	.	.	.
.	.	.	.	.	.	.
==	==	==	==	==	==	==
*-	*-	*-	*-	*-	*-	*-
!!!system-decoration: {(s1,s2)}s3,s4e